;FLAVOR:Marlin
;TIME:1159
;Filament used: 0.512552m
;Layer height: 0.2
;MINX:85.752
;MINY:94.891
;MINZ:0.2
;MAXX:114.478
;MAXY:124.29
;MAXZ:15
;TARGET_MACHINE.NAME:Creality Ender-3
;Generated with Cura_SteamEngine 5.7.0
M140 S50
M105
M190 S50
M104 S200
M105
M109 S200
M82 ;absolute extrusion mode
; Ender 3 Custom Start G-code
G92 E0 ; Reset Extruder
G28 ; Home all axes
G1 X12.1 Y20 Z0.3 F5000.0 ; Move to start position
G1 X12.1 Y200.0 Z0.3 F1500.0 E15 ; Draw the first line
G1 X12.4 Y200.0 Z0.3 F5000.0 ; Move to side a little
G1 X12.4 Y20 Z0.3 F1500.0 E30 ; Draw the second line
G92 E0 ; Reset Extruder
G1 Z2.0 F3000 ; Move Z Axis up little to prevent scratching of Heat Bed
G4 S1 ; Wait 1 second
G1 X0 Y0 Z0 F1000.0 ; Move over to prevent blob squish & Go Home
G4 S30 ; Wait 30 seconds
G0 Z0.2 ; Drop to bed
G92 E0
G92 E0
G1 F2700 E-5
;LAYER_COUNT:75
;LAYER:0
M107
;MESH:bseries_prop 07.stl
G0 F6000 X100.415 Y113.532 Z0.2
;TYPE:WALL-INNER
G1 F2700 E0
G1 F796.5 X100.715 Y113.532 E0.00998
G1 X101.198 Y113.455 E0.02625
G1 X101.681 Y113.3 E0.04312
G1 X102.171 Y113.039 E0.06158
G1 X102.428 Y112.849 E0.07221
G1 X102.769 Y112.544 E0.08743
G1 X102.962 Y112.308 E0.09757
G1 X103.187 Y111.976 E0.11091
G1 X103.373 Y111.621 E0.12424
G1 X103.484 Y111.3 E0.13553
G1 X103.575 Y110.933 E0.14811
G1 X103.623 Y110.478 E0.16333
G1 X103.606 Y110.036 E0.17804
G1 X103.514 Y109.586 E0.19332
G1 X103.404 Y109.247 E0.20517
G1 X103.197 Y108.792 E0.2218
G1 X102.899 Y108.369 E0.23901
G1 X102.627 Y108.093 E0.25189
G1 X102.432 Y107.921 E0.26054
G1 X102.174 Y107.734 E0.27114
G1 X101.899 Y107.578 E0.28166
G1 X101.559 Y107.43 E0.29399
G1 X101.191 Y107.312 E0.30684
G1 X100.849 Y107.257 E0.31837
G1 X100.306 Y107.233 E0.33644
G1 X99.811 Y107.3 E0.35306
G1 X99.47 Y107.398 E0.36486
G1 X99.229 Y107.488 E0.37341
G1 X98.995 Y107.602 E0.38207
G1 X98.774 Y107.731 E0.39058
G1 X98.559 Y107.879 E0.39926
G1 X98.266 Y108.124 E0.41197
G1 X98.007 Y108.421 E0.42507
G1 X97.75 Y108.78 E0.43976
G1 X97.551 Y109.206 E0.4554
G1 X97.431 Y109.571 E0.46818
G1 X97.347 Y109.933 E0.48054
G1 X97.315 Y110.497 E0.49933
G1 X97.391 Y111.086 E0.51908
G1 X97.551 Y111.561 E0.53575
G1 X97.749 Y111.988 E0.5514
G1 X98.07 Y112.433 E0.56965
G1 X98.414 Y112.776 E0.58581
G1 X98.66 Y112.959 E0.59601
G1 X98.887 Y113.107 E0.60502
G1 X99.108 Y113.226 E0.61337
G1 X99.35 Y113.328 E0.6221
G1 X99.7 Y113.441 E0.63434
G1 X100.038 Y113.504 E0.64577
G1 X100.415 Y113.532 E0.65835
G0 F6000 X100.747 Y113.932
;TYPE:WALL-OUTER
G1 F796.5 X101.176 Y113.863 E0.6728
G1 X101.421 Y113.803 E0.68119
G1 X101.711 Y113.711 E0.69131
G1 X101.942 Y113.615 E0.69963
G1 X102.385 Y113.378 E0.71634
G1 X102.681 Y113.16 E0.72856
G1 X103.059 Y112.821 E0.74545
G1 X103.283 Y112.548 E0.7572
G1 X103.531 Y112.181 E0.77193
G1 X103.668 Y111.92 E0.78173
G1 X103.774 Y111.685 E0.79031
G1 X103.868 Y111.414 E0.79985
G1 X103.97 Y111.005 E0.81387
G1 X104.008 Y110.641 E0.82604
G1 X104.019 Y110.371 E0.83503
G1 X104.004 Y109.988 E0.84778
G1 X103.902 Y109.484 E0.86488
G1 X103.777 Y109.101 E0.87828
G1 X103.598 Y108.708 E0.89264
G1 X103.463 Y108.476 E0.90157
G1 X103.285 Y108.222 E0.91189
G1 X103.111 Y108.015 E0.92088
G1 X102.902 Y107.802 E0.93081
G1 X102.682 Y107.609 E0.94054
G1 X102.391 Y107.397 E0.95251
G1 X102.078 Y107.22 E0.96447
G1 X101.701 Y107.056 E0.97815
G1 X101.29 Y106.923 E0.99252
G1 X100.789 Y106.842 E1.0094
G1 X100.397 Y106.837 E1.02243
G1 X100.14 Y106.852 E1.031
G1 X99.858 Y106.89 E1.04046
G1 X99.605 Y106.943 E1.04906
G1 X99.344 Y107.018 E1.05809
G1 X99.071 Y107.12 E1.06778
G1 X98.807 Y107.249 E1.07756
G1 X98.56 Y107.393 E1.08707
G1 X98.317 Y107.56 E1.09687
G1 X98.091 Y107.749 E1.10667
G1 X97.89 Y107.946 E1.11603
G1 X97.693 Y108.173 E1.12603
G1 X97.507 Y108.432 E1.13663
G1 X97.357 Y108.675 E1.14613
G1 X97.179 Y109.058 E1.16018
G1 X97.045 Y109.463 E1.17437
G1 X96.95 Y109.874 E1.1884
G1 X96.914 Y110.513 E1.20969
G1 X96.982 Y111.04 E1.22736
G1 X97.041 Y111.301 E1.23626
G1 X97.179 Y111.709 E1.25058
G1 X97.361 Y112.1 E1.26493
G1 X97.507 Y112.336 E1.27416
G1 X97.693 Y112.595 E1.28476
G1 X97.871 Y112.799 E1.29377
G1 X98.152 Y113.08 E1.30699
G1 X98.431 Y113.287 E1.31854
G1 X98.683 Y113.451 E1.32854
G1 X98.935 Y113.587 E1.33807
G1 X99.21 Y113.704 E1.34801
G1 X99.602 Y113.829 E1.36169
G1 X99.986 Y113.901 E1.37469
G1 X100.4 Y113.932 E1.38849
G1 X100.747 Y113.932 E1.40003
G0 F6000 X100.542 Y113.178
;TYPE:SKIN
G1 F796.5 X100.07 Y113.141 E1.41578
G1 X99.785 Y113.089 E1.42542
G1 X99.479 Y112.992 E1.43609
G1 X99.164 Y112.855 E1.44752
G1 X98.863 Y112.66 E1.45945
G1 X98.652 Y112.5 E1.46826
G1 X98.337 Y112.189 E1.48298
G1 X98.066 Y111.814 E1.49837
G1 X97.879 Y111.409 E1.5132
G1 X97.744 Y111.011 E1.52718
G1 X97.677 Y110.476 E1.54511
G1 X97.7 Y110.057 E1.55907
G1 X97.778 Y109.656 E1.57266
G1 X97.879 Y109.354 E1.58325
G1 X98.058 Y108.965 E1.59749
G1 X98.363 Y108.538 E1.61495
G1 X98.86 Y108.089 E1.63722
G1 X99.461 Y107.769 E1.65987
G1 X99.987 Y107.638 E1.6779
G1 X100.406 Y107.597 E1.6919
G1 X100.931 Y107.619 E1.70938
G1 X101.427 Y107.765 E1.72657
G1 X101.731 Y107.896 E1.73758
G1 X101.983 Y108.037 E1.74719
G1 X102.284 Y108.26 E1.75965
G1 X102.621 Y108.605 E1.77569
G1 X102.885 Y108.976 E1.79083
G1 X103.061 Y109.365 E1.80503
G1 X103.162 Y109.673 E1.81582
G1 X103.248 Y110.08 E1.82965
G1 X103.255 Y110.359 E1.83893
G1 X103.225 Y110.795 E1.85347
G1 X103.113 Y111.305 E1.87084
G1 X102.878 Y111.783 E1.88855
G1 X102.667 Y112.095 E1.90108
G1 X102.503 Y112.293 E1.90963
G1 X102.193 Y112.572 E1.9235
G1 X101.985 Y112.726 E1.93211
G1 X101.533 Y112.967 E1.94915
G1 X101.107 Y113.104 E1.96403
G1 X100.542 Y113.178 E1.98298
G0 F6000 X100.345 Y113.425
G0 X99.406 Y113.178
G0 X98.752 Y112.827
G0 X98.188 Y112.322
G0 X98.021 Y112.09
G0 X97.481 Y111.005
G0 X97.937 Y110.948
G1 F796.5 X99.894 Y112.905 E2.07503
G0 F6000 X100.531 Y112.976
G1 F796.5 X97.885 Y110.331 E2.19947
G0 F6000 X97.948 Y109.827
G1 F796.5 X101.032 Y112.912 E2.34456
G0 F6000 X101.463 Y112.776
G1 F796.5 X98.081 Y109.394 E2.50364
G0 F6000 X98.267 Y109.015
G1 F796.5 X101.832 Y112.58 E2.67132
G0 F6000 X102.154 Y112.337
G1 F796.5 X98.503 Y108.685 E2.84308
G0 F6000 X98.798 Y108.415
G1 F796.5 X102.448 Y112.064 E3.01474
G0 F6000 X102.676 Y111.727
G1 F796.5 X99.125 Y108.176 E3.18177
G0 F6000 X99.493 Y107.979
G1 F796.5 X102.868 Y111.353 E3.34049
G0 F6000 X102.994 Y110.913
G1 F796.5 X99.938 Y107.857 E3.48424
G0 F6000 X100.445 Y107.798
G1 F796.5 X103.052 Y110.406 E3.60689
G0 F6000 X102.978 Y109.766
G1 F796.5 X101.084 Y107.873 E3.69595
;MESH:NONMESH
G0 F300 X101.084 Y107.873 Z0.4
G0 F6000 X101.217 Y107.436
G0 X102.087 Y107.869
G0 X102.775 Y108.474
G0 X103.057 Y108.874
G0 X103.359 Y109.627
G0 X103.458 Y110.37
G0 X103.303 Y111.374
G0 X102.834 Y112.211
G0 X102.327 Y112.725
G0 X101.753 Y113.07
G0 X100.764 Y113.415
G0 X100.631 Y113.532
;TIME_ELAPSED:14.180361
;LAYER:1
M106 S85
;TYPE:WALL-INNER
;MESH:bseries_prop 07.stl
G1 F682.7 X101.183 Y113.461 E3.71446
G1 X101.67 Y113.305 E3.73147
G1 X102.063 Y113.102 E3.74618
G1 X102.419 Y112.866 E3.76039
G1 X102.799 Y112.512 E3.77766
G1 X103.053 Y112.181 E3.79154
G1 X103.191 Y111.969 E3.79995
G1 X103.35 Y111.675 E3.81107
G1 X103.485 Y111.293 E3.82454
G1 X103.586 Y110.842 E3.83992
G1 X103.619 Y110.377 E3.85542
G1 X103.578 Y109.829 E3.8737
G1 X103.447 Y109.334 E3.89073
G1 X103.255 Y108.917 E3.906
G1 X103.117 Y108.68 E3.91512
G1 X102.967 Y108.465 E3.92384
G1 X102.77 Y108.228 E3.93409
G1 X102.542 Y108.014 E3.94449
G1 X102.339 Y107.851 E3.95315
G1 X102.004 Y107.624 E3.96661
G1 X101.571 Y107.436 E3.98231
G1 X101.102 Y107.291 E3.99864
G1 X100.619 Y107.24 E4.01479
G1 X100.179 Y107.25 E4.02943
G1 X99.815 Y107.305 E4.04167
G1 X99.368 Y107.423 E4.05705
G1 X99.003 Y107.598 E4.07051
G1 X98.779 Y107.731 E4.07918
G1 X98.565 Y107.877 E4.08779
G1 X98.265 Y108.123 E4.1007
G1 X97.96 Y108.479 E4.11629
G1 X97.707 Y108.861 E4.13153
G1 X97.552 Y109.201 E4.14396
G1 X97.438 Y109.542 E4.15591
G1 X97.379 Y109.787 E4.1643
G1 X97.314 Y110.257 E4.18008
G1 X97.348 Y110.848 E4.19977
G1 X97.427 Y111.194 E4.21157
G1 X97.548 Y111.561 E4.22442
G1 X97.681 Y111.853 E4.2351
G1 X97.845 Y112.127 E4.24572
G1 X97.995 Y112.331 E4.25414
G1 X98.165 Y112.531 E4.26287
G1 X98.363 Y112.726 E4.27211
G1 X98.557 Y112.886 E4.28048
G1 X98.82 Y113.072 E4.29119
G1 X99.088 Y113.215 E4.30129
G1 X99.452 Y113.363 E4.31436
G1 X99.82 Y113.468 E4.32709
G1 X100.174 Y113.521 E4.339
G1 X100.631 Y113.532 E4.3542
G0 F7500 X100.725 Y113.934
;TYPE:WALL-OUTER
G1 F682.7 X101.161 Y113.867 E4.36887
G1 X101.425 Y113.803 E4.37791
G1 X101.823 Y113.676 E4.3918
G1 X102.266 Y113.447 E4.40839
G1 X102.569 Y113.246 E4.42048
G1 X102.781 Y113.076 E4.42952
G1 X103.001 Y112.871 E4.43952
G1 X103.182 Y112.671 E4.44849
G1 X103.38 Y112.412 E4.45934
G1 X103.535 Y112.173 E4.46881
G1 X103.663 Y111.936 E4.47777
G1 X103.769 Y111.691 E4.48665
G1 X103.868 Y111.409 E4.49659
G1 X103.97 Y111.013 E4.51019
G1 X104.012 Y110.633 E4.52291
G1 X104.019 Y110.374 E4.53152
G1 X104.008 Y110.123 E4.53988
G1 X103.968 Y109.741 E4.55265
G1 X103.864 Y109.342 E4.56637
G1 X103.782 Y109.103 E4.57477
G1 X103.61 Y108.733 E4.58834
G1 X103.455 Y108.464 E4.59867
G1 X103.285 Y108.222 E4.60851
G1 X103.062 Y107.954 E4.6201
G1 X102.804 Y107.712 E4.63187
G1 X102.577 Y107.529 E4.64157
G1 X102.326 Y107.359 E4.65165
G1 X102.079 Y107.22 E4.66107
G1 X101.71 Y107.06 E4.67445
G1 X101.303 Y106.935 E4.68861
G1 X101.037 Y106.882 E4.69763
G1 X100.541 Y106.829 E4.71422
G1 X100.137 Y106.852 E4.72768
G1 X99.733 Y106.913 E4.74127
G1 X99.335 Y107.019 E4.75497
G1 X99.076 Y107.12 E4.76422
G1 X98.815 Y107.245 E4.77384
G1 X98.564 Y107.393 E4.78353
G1 X98.325 Y107.557 E4.79318
G1 X98.09 Y107.749 E4.80327
G1 X97.891 Y107.945 E4.81256
G1 X97.64 Y108.237 E4.82537
G1 X97.432 Y108.552 E4.83792
G1 X97.299 Y108.791 E4.84702
G1 X97.179 Y109.054 E4.85663
G1 X97.053 Y109.432 E4.86989
G1 X96.985 Y109.713 E4.8795
G1 X96.913 Y110.241 E4.89722
G1 X96.951 Y110.909 E4.91948
G1 X97.041 Y111.302 E4.93289
G1 X97.175 Y111.707 E4.94708
G1 X97.326 Y112.039 E4.95921
G1 X97.511 Y112.349 E4.97121
G1 X97.681 Y112.579 E4.98073
G1 X97.871 Y112.803 E4.9905
G1 X98.095 Y113.023 E5.00094
G1 X98.314 Y113.204 E5.01039
G1 X98.61 Y113.413 E5.02244
G1 X98.918 Y113.578 E5.03406
G1 X99.322 Y113.742 E5.04856
G1 X99.735 Y113.86 E5.06285
G1 X100.136 Y113.92 E5.07634
G1 X100.725 Y113.934 E5.09593
G0 F7500 X100.609 Y113.171
;TYPE:SKIN
G1 F682.7 X100.202 Y113.16 E5.10947
G1 X99.902 Y113.115 E5.11956
G1 X99.57 Y113.022 E5.13103
G1 X99.114 Y112.836 E5.14741
G1 X98.681 Y112.53 E5.16505
G1 X98.421 Y112.274 E5.17718
G1 X98.141 Y111.921 E5.19217
G1 X98.006 Y111.694 E5.20095
G1 X97.883 Y111.426 E5.21076
G1 X97.771 Y111.089 E5.22257
G1 X97.7 Y110.712 E5.23533
G1 X97.677 Y110.261 E5.25035
G1 X97.744 Y109.75 E5.26749
G1 X97.886 Y109.334 E5.28211
G1 X98.078 Y108.949 E5.29642
G1 X98.24 Y108.705 E5.30616
G1 X98.517 Y108.38 E5.32037
G1 X98.782 Y108.163 E5.33176
G1 X99.167 Y107.917 E5.34695
G1 X99.575 Y107.738 E5.36177
G1 X99.885 Y107.657 E5.37243
G1 X100.209 Y107.608 E5.38333
G1 X100.599 Y107.601 E5.3963
G1 X101.019 Y107.645 E5.41035
G1 X101.45 Y107.776 E5.42533
G1 X101.827 Y107.94 E5.439
G1 X102.222 Y108.209 E5.4549
G1 X102.498 Y108.47 E5.46753
G1 X102.759 Y108.78 E5.48101
G1 X102.93 Y109.077 E5.49241
G1 X103.11 Y109.464 E5.50661
G1 X103.221 Y109.893 E5.52134
G1 X103.255 Y110.375 E5.53742
G1 X103.225 Y110.794 E5.55139
G1 X103.139 Y111.18 E5.56454
G1 X103.016 Y111.53 E5.57688
G1 X102.827 Y111.878 E5.59005
G1 X102.535 Y112.261 E5.60607
G1 X102.195 Y112.578 E5.62153
G1 X101.878 Y112.787 E5.63416
G1 X101.526 Y112.97 E5.64735
G1 X101.1 Y113.108 E5.66225
G1 X100.609 Y113.171 E5.67871
G0 F7500 X100.598 Y113.431
G0 X101.61 Y113.154
G0 X102.323 Y112.736
G0 X103.102 Y111.92
G0 X102.697 Y111.697
G1 F682.7 X101.788 Y112.607 E5.72149
G0 F7500 X100.896 Y112.933
G1 F682.7 X103.016 Y110.814 E5.82119
G0 F7500 X103.044 Y110.22
G1 F682.7 X100.301 Y112.962 E5.95019
G0 F7500 X99.814 Y112.883
G1 F682.7 X102.971 Y109.727 E6.09866
G0 F7500 X102.819 Y109.313
G1 F682.7 X99.397 Y112.735 E6.25962
G0 F7500 X99.032 Y112.534
G1 F682.7 X102.622 Y108.944 E6.42848
G0 F7500 X102.37 Y108.631
G1 F682.7 X98.716 Y112.284 E6.60033
G0 F7500 X98.449 Y111.986
G1 F682.7 X102.081 Y108.354 E6.77117
G0 F7500 X101.744 Y108.125
G1 F682.7 X98.211 Y111.659 E6.93737
G0 F7500 X98.04 Y111.263
G1 F682.7 X101.349 Y107.955 E7.093
G0 F7500 X100.903 Y107.834
G1 F682.7 X97.923 Y110.815 E7.23319
G0 F7500 X97.879 Y110.293
G1 F682.7 X100.367 Y107.805 E7.35022
G0 F7500 X99.692 Y107.914
G1 F682.7 X98.009 Y109.598 E7.4294
;MESH:NONMESH
G0 F300 X98.009 Y109.598 Z0.6
G0 F7500 X97.704 Y109.121
G0 X97.476 Y110.267
G0 X97.582 Y111.15
G0 X97.979 Y112.038
G0 X98.55 Y112.684
G0 X99.156 Y113.07
G0 X100.401 Y113.426
G0 X100.396 Y113.538
;TIME_ELAPSED:25.434647
;LAYER:2
M106 S255
;TYPE:WALL-INNER
;MESH:bseries_prop 07.stl
G1 F673.4 X100.868 Y113.515 E7.44512
G1 X101.193 Y113.449 E7.45615
G1 X101.653 Y113.31 E7.47213
G1 X102.068 Y113.101 E7.48759
G1 X102.332 Y112.924 E7.49816
G1 X102.649 Y112.668 E7.51171
G1 X102.963 Y112.309 E7.52758
G1 X103.119 Y112.086 E7.53663
G1 X103.324 Y111.739 E7.55003
G1 X103.482 Y111.301 E7.56552
G1 X103.549 Y111.042 E7.57442
G1 X103.605 Y110.734 E7.58483
G1 X103.623 Y110.281 E7.59991
G1 X103.575 Y109.838 E7.61473
G1 X103.453 Y109.345 E7.63162
G1 X103.254 Y108.913 E7.64744
G1 X103.125 Y108.691 E7.65598
G1 X102.981 Y108.483 E7.66439
G1 X102.773 Y108.232 E7.67524
G1 X102.541 Y108.013 E7.68585
G1 X102.336 Y107.848 E7.6946
G1 X102.122 Y107.704 E7.70318
G1 X101.83 Y107.542 E7.71429
G1 X101.572 Y107.436 E7.72356
G1 X101.311 Y107.35 E7.7327
G1 X100.883 Y107.265 E7.74722
G1 X100.492 Y107.237 E7.76025
G1 X100.195 Y107.244 E7.77013
G1 X99.816 Y107.304 E7.7829
G1 X99.427 Y107.406 E7.79627
G1 X99.11 Y107.545 E7.80779
G1 X98.883 Y107.665 E7.81633
G1 X98.486 Y107.926 E7.83213
G1 X98.178 Y108.224 E7.84638
G1 X97.917 Y108.531 E7.85978
G1 X97.655 Y108.956 E7.87639
G1 X97.5 Y109.335 E7.89001
G1 X97.397 Y109.688 E7.90224
G1 X97.335 Y110.02 E7.91347
G1 X97.321 Y110.374 E7.92526
G1 X97.347 Y110.841 E7.94081
G1 X97.427 Y111.193 E7.95282
G1 X97.551 Y111.562 E7.96577
G1 X97.709 Y111.905 E7.97833
G1 X97.928 Y112.254 E7.99203
G1 X98.256 Y112.633 E8.0087
G1 X98.551 Y112.88 E8.0215
G1 X98.876 Y113.102 E8.03459
G1 X99.201 Y113.275 E8.04683
G1 X99.572 Y113.404 E8.0599
G1 X99.951 Y113.498 E8.07289
G1 X100.396 Y113.538 E8.08775
G0 F9000 X100.388 Y113.939
;TYPE:WALL-OUTER
G1 F673.4 X100.771 Y113.92 E8.1005
G1 X101.028 Y113.89 E8.10911
G1 X101.291 Y113.837 E8.11803
G1 X101.808 Y113.681 E8.13599
G1 X102.27 Y113.447 E8.15322
G1 X102.569 Y113.246 E8.1652
G1 X102.801 Y113.06 E8.17509
G1 X102.992 Y112.884 E8.18373
G1 X103.278 Y112.556 E8.1982
G1 X103.455 Y112.303 E8.20847
G1 X103.603 Y112.052 E8.21816
G1 X103.723 Y111.809 E8.22718
G1 X103.864 Y111.42 E8.24094
G1 X103.94 Y111.128 E8.25097
G1 X104.004 Y110.778 E8.26281
G1 X104.023 Y110.265 E8.27988
G1 X103.97 Y109.768 E8.29651
G1 X103.864 Y109.341 E8.31114
G1 X103.782 Y109.103 E8.31951
G1 X103.61 Y108.729 E8.3332
G1 X103.463 Y108.476 E8.34294
G1 X103.3 Y108.241 E8.35245
G1 X103.065 Y107.958 E8.36468
G1 X102.804 Y107.711 E8.37663
G1 X102.573 Y107.526 E8.38648
G1 X102.331 Y107.363 E8.39618
G1 X102.004 Y107.181 E8.40863
G1 X101.71 Y107.06 E8.4192
G1 X101.312 Y106.929 E8.43314
G1 X100.929 Y106.867 E8.44604
G1 X100.502 Y106.837 E8.46028
G1 X100.159 Y106.844 E8.47169
G1 X99.734 Y106.912 E8.48601
G1 X99.456 Y106.985 E8.49557
G1 X99.212 Y107.064 E8.5041
G1 X98.936 Y107.185 E8.51412
G1 X98.679 Y107.321 E8.52379
G1 X98.32 Y107.557 E8.53808
G1 X98.107 Y107.737 E8.54736
G1 X97.886 Y107.95 E8.55757
G1 X97.686 Y108.185 E8.56783
G1 X97.523 Y108.408 E8.57702
G1 X97.36 Y108.673 E8.58736
G1 X97.235 Y108.927 E8.59678
G1 X97.122 Y109.203 E8.6067
G1 X97.007 Y109.595 E8.62029
G1 X96.936 Y109.975 E8.63314
G1 X96.921 Y110.378 E8.64656
G1 X96.95 Y110.902 E8.66401
G1 X97.041 Y111.301 E8.67762
G1 X97.179 Y111.71 E8.69198
G1 X97.357 Y112.096 E8.70612
G1 X97.606 Y112.492 E8.72168
G1 X97.894 Y112.826 E8.73634
G1 X98.079 Y113.007 E8.74495
G1 X98.309 Y113.2 E8.75494
G1 X98.668 Y113.444 E8.76938
G1 X98.943 Y113.591 E8.77975
G1 X99.184 Y113.693 E8.78845
