;FLAVOR:Marlin
;TIME:665
;Filament used: 0.423983m
;Layer height: 0.2
;MINX:90.888
;MINY:100.928
;MINZ:0.2
;MAXX:109.109
;MAXY:119.991
;MAXZ:5
;TARGET_MACHINE.NAME:Creality Ender-3
;Generated with Cura_SteamEngine 5.7.0
M140 S50
M105
M190 S50
M104 S200
M105
M109 S200
M82 ;absolute extrusion mode
; Ender 3 Custom Start G-code
G92 E0 ; Reset Extruder
G28 ; Home all axes
G1 X12.1 Y20 Z0.3 F5000.0 ; Move to start position
G1 X12.1 Y200.0 Z0.3 F1500.0 E15 ; Draw the first line
G1 X12.4 Y200.0 Z0.3 F5000.0 ; Move to side a little
G1 X12.4 Y20 Z0.3 F1500.0 E30 ; Draw the second line
G92 E0 ; Reset Extruder
G1 Z2.0 F3000 ; Move Z Axis up little to prevent scratching of Heat Bed
G4 S10 ; Wait 4 seconds
G1 X0 Y0 Z0 F1000.0 ; Move over to prevent blob squish & Go Home
G4 S30 ; Wait 30 seconds
G0 Z0.2 ; Drop to bed
G92 E0
G92 E0
G1 F2700 E-5
;LAYER_COUNT:25
;LAYER:0
M106 S255
;MESH:Spur gear.STL
G0 F9000 X101.347 Y116.415 Z0.2
;TYPE:WALL-INNER
G1 F2700 E0
G1 F1500 X101.387 Y116.065 E0.01172
G1 X101.611 Y115.8 E0.02326
G1 X101.784 Y115.676 E0.03034
G1 X102.377 Y115.445 E0.0515
G1 X102.969 Y115.148 E0.07353
G1 X103.174 Y115.102 E0.08052
G1 X103.52 Y115.112 E0.09203
G1 X103.81 Y115.316 E0.10383
G1 X103.706 Y114.977 E0.11562
G1 X103.804 Y114.646 E0.1271
G1 X103.93 Y114.453 E0.13477
G1 X104.367 Y114.003 E0.15563
G1 X104.764 Y113.524 E0.17632
G1 X104.944 Y113.379 E0.18401
G1 X105.265 Y113.247 E0.19555
G1 X105.613 Y113.316 E0.20735
G1 X105.378 Y113.051 E0.21914
G1 X105.333 Y112.706 E0.23071
G1 X105.368 Y112.478 E0.23838
G1 X105.587 Y111.88 E0.25956
G1 X105.74 Y111.328 E0.27861
G1 X105.866 Y111.07 E0.28816
G1 X106.11 Y110.82 E0.29978
G1 X106.434 Y110.75 E0.31081
G1 X106.132 Y110.614 E0.32182
G1 X105.946 Y110.319 E0.33342
G1 X105.883 Y110.092 E0.34126
G1 X105.836 Y109.452 E0.3626
G1 X105.749 Y108.839 E0.38319
G1 X105.763 Y108.606 E0.39096
G1 X105.881 Y108.28 E0.40249
G1 X106.092 Y108.095 E0.41182
G1 X105.813 Y108.068 E0.42114
G1 X105.526 Y107.873 E0.43269
G1 X105.379 Y107.693 E0.44041
G1 X105.09 Y107.147 E0.46096
G1 X104.732 Y106.586 E0.4831
G1 X104.667 Y106.393 E0.48987
G1 X104.641 Y106.044 E0.50151
G1 X104.755 Y105.793 E0.51068
G1 X104.492 Y105.88 E0.51989
G1 X104.149 Y105.817 E0.53149
G1 X103.904 Y105.684 E0.54076
G1 X103.444 Y105.319 E0.56029
G1 X102.906 Y104.965 E0.58171
G1 X102.76 Y104.803 E0.58897
G1 X102.598 Y104.495 E0.60054
G1 X102.602 Y104.229 E0.60939
G1 X102.407 Y104.409 E0.61822
G1 X102.069 Y104.494 E0.62981
G1 X101.783 Y104.474 E0.63934
G1 X101.223 Y104.332 E0.65856
G1 X100.631 Y104.233 E0.67852
G1 X100.277 Y104.078 E0.69138
G1 X99.998 Y103.796 E0.70457
G1 X99.719 Y104.078 E0.71776
G1 X99.365 Y104.233 E0.73062
G1 X98.774 Y104.332 E0.75055
G1 X98.17 Y104.483 E0.77126
G1 X97.937 Y104.494 E0.77901
G1 X97.6 Y104.412 E0.79055
G1 X97.392 Y104.221 E0.79994
G1 X97.394 Y104.504 E0.80936
G1 X97.231 Y104.81 E0.82089
G1 X97.068 Y104.975 E0.8286
G1 X96.553 Y105.318 E0.84918
G1 X96.058 Y105.711 E0.8702
G1 X95.856 Y105.815 E0.87776
G1 X95.518 Y105.88 E0.88921
G1 X95.237 Y105.789 E0.89903
G1 X95.357 Y106.058 E0.90883
G1 X95.327 Y106.402 E0.92031
G1 X95.259 Y106.597 E0.92718
G1 X94.908 Y107.144 E0.9488
G1 X94.647 Y107.648 E0.96768
G1 X94.479 Y107.869 E0.97691
G1 X94.195 Y108.064 E0.98837
G1 X93.902 Y108.095 E0.99817
G1 X94.121 Y108.291 E1.00794
G1 X94.236 Y108.616 E1.01941
G1 X94.253 Y108.828 E1.02648
G1 X94.16 Y109.452 E1.04747
G1 X94.113 Y110.092 E1.06881
G1 X94.05 Y110.319 E1.07665
G1 X93.862 Y110.613 E1.08825
G1 X93.56 Y110.75 E1.09928
G1 X93.885 Y110.821 E1.11035
G1 X94.13 Y111.07 E1.12196
G1 X94.239 Y111.259 E1.12922
G1 X94.408 Y111.877 E1.15053
G1 X94.644 Y112.503 E1.17278
G1 X94.667 Y112.704 E1.17951
G1 X94.622 Y113.048 E1.19105
G1 X94.384 Y113.318 E1.20302
G1 X94.738 Y113.249 E1.21502
G1 X95.057 Y113.382 E1.22651
G1 X95.235 Y113.528 E1.23417
G1 X95.628 Y114.001 E1.25462
G1 X96.027 Y114.404 E1.27349
G1 X96.243 Y114.756 E1.28722
G1 X96.3 Y115.119 E1.29944
G1 X96.262 Y115.217 E1.30294
G1 X96.344 Y115.15 E1.30646
G1 X96.706 Y115.092 E1.31865
G1 X97.04 Y115.158 E1.32998
G1 X97.619 Y115.445 E1.35147
G1 X98.196 Y115.673 E1.37211
G1 X98.391 Y115.801 E1.37986
G1 X98.615 Y116.066 E1.39141
G1 X98.654 Y116.403 E1.40269
G1 X98.827 Y116.112 E1.41395
G1 X99.139 Y115.961 E1.42548
G1 X99.345 Y115.919 E1.43247
G1 X99.999 Y115.947 E1.45424
G1 X100.627 Y115.924 E1.47514
G1 X100.856 Y115.961 E1.48286
G1 X101.168 Y116.112 E1.49439
G1 X101.347 Y116.415 E1.50609
G1 F2700 E-3.49391
G0 F9000 X100.01 Y117.605
G0 X99.545 Y118.785
G0 X98.231 Y118.403
G1 F2700 E1.50609
G1 F1290.3 X98.415 Y118.137 E1.5186
G1 X98.606 Y117.734 E1.53584
G1 F1250 X98.711 Y117.332 E1.55242
G1 F1263.2 X98.789 Y116.849 E1.57175
G1 F1405.2 X98.816 Y116.845 E1.57272
G1 F1500 X99.061 Y116.436 E1.58857
G1 X99.3 Y116.321 E1.5974
G1 X99.999 Y116.347 E1.62066
G1 X100.695 Y116.321 E1.64383
G1 X100.934 Y116.437 E1.65266
G1 F1401.9 X101.207 Y116.845 E1.67013
G1 F1260.5 X101.288 Y117.332 E1.68967
G1 F1247.4 X101.391 Y117.732 E1.70619
G1 F1282.1 X101.585 Y118.134 E1.72356
G1 X101.767 Y118.397 E1.73601
G1 X101.828 Y118.074 E1.7488
G1 X101.844 Y117.637 E1.76582
G1 F1247.4 X101.774 Y117.229 E1.78237
G1 F1260.5 X101.651 Y116.751 E1.80191
G1 F1401.9 X101.733 Y116.266 E1.81941
G1 F1500 X101.969 Y116.034 E1.83042
G1 X102.54 Y115.811 E1.85081
G1 X103.17 Y115.496 E1.87424
G1 X103.44 Y115.504 E1.88322
G1 X103.833 Y115.779 E1.89918
G1 F1401.9 X103.86 Y115.772 E1.90017
G1 F1263.2 X104.117 Y116.167 E1.91878
G1 F1250 X104.39 Y116.51 E1.93628
G1 F1287.6 X104.724 Y116.792 E1.95322
G1 X105.002 Y116.962 E1.96584
G1 X104.927 Y116.644 E1.9785
G1 X104.758 Y116.235 E1.99565
G1 F1250 X104.524 Y115.883 E2.01252
G1 F1263.2 X104.229 Y115.509 E2.03133
G1 F1401.9 X104.243 Y115.482 E2.03242
G1 F1500 X104.104 Y115.023 E2.04837
G1 X104.178 Y114.77 E2.05713
G1 X104.665 Y114.27 E2.08035
G1 X105.103 Y113.739 E2.10324
G1 X105.351 Y113.638 E2.11215
G1 F1405.2 X105.842 Y113.71 E2.12977
G1 F1263.2 X106.245 Y113.967 E2.14865
G1 F1247.4 X106.628 Y114.169 E2.16596
G1 F1282.1 X107.032 Y114.284 E2.18231
G1 X107.362 Y114.326 E2.19526
G1 X107.168 Y114.068 E2.20782
G1 X106.847 Y113.762 E2.22508
G1 F1244.8 X106.501 Y113.541 E2.24153
G1 F1263.2 X106.068 Y113.318 E2.26077
G1 F1405.2 X105.76 Y112.93 E2.27836
G1 F1500 X105.724 Y112.66 E2.28742
G1 X105.968 Y112.003 E2.31073
G1 X106.154 Y111.338 E2.33369
G1 X106.343 Y111.146 E2.34265
G1 F1401.9 X106.811 Y111.019 E2.35991
G1 F1263.2 X107.287 Y111.09 E2.37892
G1 F1250 X107.714 Y111.118 E2.396
G1 F1287.6 X108.15 Y111.063 E2.41303
G1 X108.464 Y110.966 E2.42576
G1 X108.164 Y110.801 E2.43903
G1 X107.769 Y110.662 E2.45525
G1 F1250 X107.339 Y110.598 E2.4726
G1 F1263.2 X106.858 Y110.568 E2.49164
G1 F1401.9 X106.428 Y110.345 E2.50888
G1 F1500 X106.284 Y110.116 E2.51787
G1 X106.234 Y109.409 E2.54145
G1 X106.135 Y108.736 E2.56407
G1 X106.228 Y108.48 E2.57313
G1 F1401.9 X106.504 Y108.201 E2.5871
G1 F1260.5 X107.07 Y108.037 E2.61042
G1 F1247.4 X107.477 Y107.889 E2.62774
G1 F1287.6 X107.837 Y107.667 E2.64413
G1 X108.095 Y107.445 E2.65732
G1 X107.773 Y107.419 E2.66984
G1 X107.323 Y107.452 E2.68732
G1 F1247.4 X106.918 Y107.565 E2.70414
G1 F1260.5 X106.365 Y107.768 E2.72745
G1 F1401.9 X105.977 Y107.703 E2.74145
G1 F1500 X105.753 Y107.552 E2.75044
G1 X105.436 Y106.946 E2.77319
G1 X105.059 Y106.356 E2.79647
G1 X105.039 Y106.084 E2.80554
G1 F1408.5 X105.178 Y105.716 E2.81948
G1 F1265.8 X105.632 Y105.339 E2.84274
G1 F1250 X105.939 Y105.036 E2.85995
G1 F1290.3 X106.186 Y104.679 E2.87674
G1 X106.327 Y104.38 E2.88952
G1 X106.003 Y104.49 E2.90275
G1 X105.64 Y104.687 E2.91872
G1 F1250 X105.299 Y104.971 E2.93643
G1 F1265.8 X104.877 Y105.38 E2.95959
G1 F1408.5 X104.495 Y105.48 E2.97358
G1 F1500 X104.18 Y105.393 E2.98445
G1 X103.679 Y104.995 E3.00573
G1 X103.104 Y104.613 E3.02869
G1 X102.979 Y104.374 E3.03766
G1 F1405.2 X102.959 Y103.985 E3.05149
G1 F1265.8 X103.216 Y103.458 E3.0746
G1 F1250 X103.374 Y103.055 E3.09188
G1 F1287.6 X103.452 Y102.624 E3.10885
G1 X103.458 Y102.302 E3.12133
G1 X103.222 Y102.523 E3.13386
G1 X102.95 Y102.878 E3.15119
G1 F1250 X102.767 Y103.248 E3.16766
G1 F1265.8 X102.545 Y103.801 E3.19115
G1 F1405.2 X102.243 Y104.044 E3.20491
G1 F1500 X101.977 Y104.111 E3.21403
G1 X101.305 Y103.94 E3.2371
G1 X100.718 Y103.842 E3.25689
G1 X100.505 Y103.749 E3.26462
G1 X100.35 Y103.592 E3.27196
G1 F1408.5 X100.224 Y103.311 E3.28287
G1 F1268.5 X100.246 Y102.729 E3.30577
G1 F1250 X100.228 Y102.279 E3.32375
G1 F1284.8 X100.129 Y101.877 E3.33982
G1 X99.998 Y101.565 E3.35296
G1 X99.867 Y101.877 E3.3661
G1 X99.767 Y102.29 E3.3826
G1 F1250 X99.75 Y102.73 E3.40018
G1 F1268.5 X99.772 Y103.311 E3.42305
G1 F1408.5 X99.646 Y103.592 E3.43395
G1 F1500 X99.491 Y103.749 E3.44129
G1 X99.247 Y103.849 E3.45006
G1 X98.692 Y103.94 E3.46877
G1 X98.026 Y104.11 E3.49163
G1 X97.762 Y104.046 E3.50067
G1 F1401.9 X97.454 Y103.801 E3.51467
G1 F1263.2 X97.23 Y103.25 E3.53816
G1 F1250 X97.046 Y102.878 E3.55473
G1 F1287.6 X96.773 Y102.522 E3.57211
G1 X96.537 Y102.297 E3.58475
G1 X96.545 Y102.634 E3.59781
G1 X96.621 Y103.055 E3.61438
G1 F1250 X96.78 Y103.458 E3.63168
G1 F1260.5 X97.038 Y103.986 E3.65494
G1 F1401.9 X97.014 Y104.379 E3.66895
G1 F1500 X96.885 Y104.621 E3.67807
G1 X96.318 Y104.994 E3.70064
G1 X95.771 Y105.43 E3.72391
G1 X95.511 Y105.48 E3.73271
G1 F1405.2 X95.121 Y105.38 E3.74701
G1 F1265.8 X94.698 Y104.972 E3.77017
G1 F1252.6 X94.358 Y104.688 E3.78782
G1 F1290.3 X93.993 Y104.494 E3.8038
G1 X93.673 Y104.382 E3.81691
G1 X93.815 Y104.681 E3.82971
G1 X94.058 Y105.037 E3.84637
G1 F1252.6 X94.366 Y105.339 E3.86355
G1 F1265.8 X94.819 Y105.715 E3.88675
G1 F1405.2 X94.958 Y106.092 E3.90102
G1 F1500 X94.9 Y106.415 E3.91194
G1 X94.561 Y106.944 E3.93283
G1 X94.245 Y107.551 E3.95559
G1 X94.028 Y107.701 E3.96437
G1 F1401.9 X93.633 Y107.768 E3.97863
G1 F1263.2 X93.078 Y107.566 E4.00195
G1 F1250 X92.666 Y107.452 E4.01902
G1 F1287.6 X92.224 Y107.42 E4.03619
G1 X91.905 Y107.446 E4.04859
G1 X92.152 Y107.661 E4.06128
G1 X92.519 Y107.888 E4.078
G1 F1250 X92.926 Y108.037 E4.0953
G1 F1263.2 X93.494 Y108.2 E4.11864
G1 F1401.9 X93.772 Y108.486 E4.13283
G1 F1500 X93.861 Y108.739 E4.14175
G1 X93.762 Y109.409 E4.16428
G1 X93.712 Y110.117 E4.18788
G1 X93.567 Y110.344 E4.19684
G1 F1401.9 X93.139 Y110.568 E4.21403
G1 F1263.2 X92.656 Y110.597 E4.23315
G1 F1250 X92.227 Y110.661 E4.25046
G1 F1290.3 X91.833 Y110.799 E4.2666
G1 X91.532 Y110.967 E4.27993
G1 X91.846 Y111.063 E4.29262
G1 X92.282 Y111.118 E4.30961
G1 F1250 X92.709 Y111.091 E4.32669
G1 F1263.2 X93.186 Y111.019 E4.34574
G1 F1401.9 X93.653 Y111.147 E4.36298
G1 F1500 X93.864 Y111.407 E4.37411
G1 X94.028 Y112.001 E4.39461
G1 X94.276 Y112.658 E4.41797
G1 X94.241 Y112.928 E4.42702
G1 X93.919 Y113.294 E4.44324
G1 F1342.3 X93.493 Y113.542 E4.46156
G1 F1244.8 X93.148 Y113.762 E4.47796
G1 F1279.3 X92.828 Y114.068 E4.49522
G1 X92.633 Y114.327 E4.50787
G1 X92.964 Y114.285 E4.52088
G1 X93.368 Y114.169 E4.53727
G1 F1382.5 X94.171 Y113.732 E4.57026
G1 F1500 X94.649 Y113.639 E4.58646
G1 X94.893 Y113.741 E4.59525
G1 X95.33 Y114.269 E4.61805
G1 X95.749 Y114.693 E4.63787
G1 X95.866 Y114.89 E4.6455
G1 X95.9 Y115.108 E4.65283
G1 F1405.2 X95.775 Y115.502 E4.66751
G1 F1265.8 X95.472 Y115.885 E4.68676
G1 F1247.4 X95.239 Y116.233 E4.70351
G1 F1282.1 X95.071 Y116.65 E4.721
G1 X95 Y116.957 E4.73326
G1 X95.285 Y116.782 E4.74628
G1 X95.609 Y116.509 E4.76277
G1 F1247.4 X95.879 Y116.166 E4.78022
G1 F1265.8 X96.142 Y115.768 E4.79903
G1 F1405.2 X96.478 Y115.526 E4.81373
G1 F1500 X96.696 Y115.492 E4.82107
G1 X96.92 Y115.541 E4.82869
G1 X97.457 Y115.811 E4.84868
G1 X98.091 Y116.057 E4.8713
G1 X98.268 Y116.267 E4.88044
G1 X98.324 Y116.741 E4.89631
G1 F1405.2 X98.346 Y116.758 E4.8973
G1 F1263.2 X98.226 Y117.229 E4.9165
G1 F1250 X98.155 Y117.639 E4.9331
G1 F1290.3 X98.167 Y118.074 E4.94993
G1 X98.231 Y118.403 E4.96289
G1 F2700 E-0.03711
G0 F9000 X99.295 Y119.143
G0 X101.153 Y119.652
G0 X101.775 Y119.049
;TYPE:WALL-OUTER
G1 F2700 E4.96289
G1 F1500 X102.027 Y118.995 E4.97146
G1 X102.17 Y118.61 E4.98512
G1 X102.26 Y118.122 E5.00163
G1 X102.279 Y117.615 E5.0185
G1 X102.212 Y117.132 E5.03472
G1 X102.06 Y116.627 E5.05226
G1 X102.079 Y116.467 E5.05762
G1 X102.137 Y116.398 E5.06062
G1 X102.702 Y116.177 E5.0808
G1 X103.261 Y115.9 E5.10155
G1 X103.36 Y115.896 E5.10484
G1 X103.491 Y115.987 E5.11015
G1 X103.752 Y116.427 E5.12716
G1 X104.082 Y116.818 E5.14418
G1 X104.47 Y117.145 E5.16106
G1 X104.891 Y117.4 E5.17743
G1 X105.268 Y117.553 E5.19096
G1 X105.481 Y117.399 E5.1997
G1 X105.453 Y116.991 E5.2133
G1 X105.341 Y116.51 E5.22973
G1 X105.145 Y116.036 E5.24679
G1 X104.886 Y115.619 E5.26312
G1 X104.547 Y115.222 E5.28048
G1 X104.501 Y115.069 E5.28579
G1 X104.525 Y114.983 E5.28876
G1 X104.963 Y114.538 E5.30953
G1 X105.336 Y114.084 E5.32907
G1 X105.437 Y114.028 E5.33291
G1 X105.597 Y114.061 E5.33835
G1 X106.018 Y114.354 E5.35541
G1 X106.472 Y114.576 E5.37222
G1 X106.945 Y114.711 E5.38858
G1 X107.453 Y114.775 E5.40561
G1 X107.854 Y114.76 E5.41895
G1 X107.983 Y114.535 E5.42758
G1 X107.795 Y114.181 E5.44091
G1 X107.494 Y113.778 E5.45764
G1 X107.121 Y113.424 E5.47474
G1 X106.724 Y113.151 E5.49077
G1 X106.247 Y112.93 E5.50825
G1 X106.141 Y112.809 E5.5136
G1 X106.135 Y112.709 E5.51694
G1 X106.349 Y112.126 E5.53759
G1 X106.511 Y111.537 E5.55791
G1 X106.575 Y111.472 E5.56094
G1 X106.73 Y111.439 E5.56621
G1 X107.238 Y111.536 E5.58342
G1 X107.734 Y111.551 E5.59992
G1 X108.241 Y111.487 E5.61692
G1 X108.717 Y111.341 E5.63348
G1 X109.08 Y111.161 E5.64695
G1 X109.109 Y110.902 E5.65562
G1 X108.789 Y110.652 E5.66913
G1 X108.341 Y110.404 E5.68616
G1 X107.88 Y110.242 E5.70241
G1 X107.386 Y110.152 E5.71911
G1 X106.867 Y110.14 E5.73638
G1 X106.724 Y110.075 E5.7416
G1 X106.675 Y109.999 E5.74461
G1 X106.632 Y109.366 E5.76571
G1 X106.548 Y108.792 E5.78501
G1 X106.574 Y108.68 E5.78883
G1 X106.67 Y108.595 E5.7931
G1 X107.207 Y108.465 E5.81147
G1 X107.673 Y108.277 E5.82819
G1 X108.093 Y108.018 E5.8446
G1 X108.476 Y107.687 E5.86144
G1 X108.739 Y107.373 E5.87506
G1 X108.656 Y107.124 E5.88379
G1 X108.247 Y107.023 E5.8978
G1 X107.775 Y106.985 E5.91355
G1 X107.256 Y107.023 E5.93086
G1 X106.779 Y107.139 E5.94719
G1 X106.269 Y107.351 E5.96555
G1 X106.141 Y107.339 E5.96983
G1 X106.066 Y107.288 E5.97285
G1 X105.782 Y106.745 E5.99323
G1 X105.451 Y106.223 E6.01379
G1 X105.437 Y106.124 E6.01711
G1 X105.489 Y106.007 E6.02137
G1 X105.93 Y105.674 E6.03975
G1 X106.276 Y105.309 E6.05648
G1 X106.562 Y104.895 E6.07321
G1 X106.771 Y104.45 E6.08957
G1 X106.881 Y104.053 E6.10327
G1 X106.709 Y103.861 E6.11184
G1 X106.306 Y103.931 E6.12545
G1 X105.829 Y104.092 E6.14219
G1 X105.402 Y104.325 E6.15837
G1 X104.996 Y104.64 E6.17546
G1 X104.621 Y105.04 E6.1937
G1 X104.498 Y105.08 E6.198
G1 X104.388 Y105.047 E6.20182
G1 X103.914 Y104.671 E6.22194
G1 X103.402 Y104.332 E6.24237
G1 X103.362 Y104.126 E6.24934
G1 X103.625 Y103.641 E6.26769
G1 X103.794 Y103.167 E6.28443
G1 X103.884 Y102.679 E6.30094
G1 X103.895 Y102.174 E6.31774
G1 X103.837 Y101.774 E6.33118
G1 X103.6 Y101.668 E6.33982
G1 X103.261 Y101.894 E6.35337
G1 X102.901 Y102.231 E6.36977
G1 X102.585 Y102.642 E6.38701
G1 X102.356 Y103.069 E6.40313
G1 X102.171 Y103.594 E6.42164
G1 X102.079 Y103.679 E6.42581
G1 X101.99 Y103.701 E6.42886
G1 X101.387 Y103.548 E6.44955
G1 X100.796 Y103.45 E6.46947
G1 X100.682 Y103.368 E6.47414
G1 X100.648 Y103.274 E6.47747
G1 X100.695 Y102.731 E6.4956
G1 X100.657 Y102.212 E6.5129
G1 X100.541 Y101.74 E6.52907
G1 X100.346 Y101.277 E6.54578
G1 X100.125 Y100.928 E6.55952
G1 X99.871 Y100.928 E6.56797
G1 X99.65 Y101.277 E6.58171
G1 X99.455 Y101.74 E6.59842
G1 X99.338 Y102.223 E6.61494
G1 X99.301 Y102.734 E6.63199
G1 X99.348 Y103.274 E6.65001
G1 X99.314 Y103.368 E6.65334
G1 X99.181 Y103.454 E6.65861
G1 X98.61 Y103.548 E6.67785
G1 X98.038 Y103.694 E6.69749
G1 X97.923 Y103.68 E6.70134
G1 X97.828 Y103.593 E6.70563
G1 X97.64 Y103.069 E6.72414
G1 X97.411 Y102.642 E6.74026
G1 X97.095 Y102.231 E6.7575
G1 X96.739 Y101.894 E6.77381
G1 X96.397 Y101.668 E6.78744
G1 X96.159 Y101.774 E6.7961
G1 X96.101 Y102.173 E6.80952
G1 X96.112 Y102.679 E6.82635
G1 X96.202 Y103.167 E6.84285
G1 X96.371 Y103.641 E6.85959
G1 X96.634 Y104.126 E6.87794
