;FLAVOR:Marlin
;TIME:517
;Filament used: 0.175614m
;Layer height: 0.2
;MINX:95.2
;MINY:105.2
;MINZ:0.2
;MAXX:104.8
;MAXY:114.8
;MAXZ:10
;TARGET_MACHINE.NAME:Creality Ender-3
;Generated with Cura_SteamEngine 5.7.0
M140 S50
M105
M190 S50
M104 S200
M105
M109 S200
M82 ;absolute extrusion mode
; Ender 3 Custom Start G-code
G92 E0 ; Reset Extruder
G28 ; Home all axes
G1 X12.1 Y20 Z0.3 F5000.0 ; Move to start position
G1 X12.1 Y200.0 Z0.3 F1500.0 E15 ; Draw the first line
G1 X12.4 Y200.0 Z0.3 F5000.0 ; Move to side a little
G1 X12.4 Y20 Z0.3 F1500.0 E30 ; Draw the second line
G92 E0 ; Reset Extruder
G1 Z2.0 F3000 ; Move Z Axis up little to prevent scratching of Heat Bed
G4 S2 ; Wait 4 seconds
G1 X0 Y0 Z0 F1000.0 ; Move over to prevent blob squish & Go Home
G4 S30 ; Wait 30 seconds
G0 Z0.2 ; Drop to bed
G92 E0
G92 E0
G1 F2700 E-5
;LAYER_COUNT:50
;LAYER:0
M107
;MESH:Square.STL
G0 F6000 X104 Y114 Z0.2
;TYPE:WALL-INNER
G1 F2700 E0
G1 F751.1 X104 Y106 E0.26608
G1 X96 Y106 E0.53216
G1 X96 Y114 E0.79824
G1 X104 Y114 E1.06432
G0 F6000 X104.4 Y114.4
G1 F751.1 X104.4 Y105.6 E1.35701
G1 X95.6 Y105.6 E1.6497
G1 X95.6 Y114.4 E1.94239
G1 X104.4 Y114.4 E2.23508
G0 F6000 X104.8 Y114.8
;TYPE:WALL-OUTER
G1 F751.1 X104.8 Y105.2 E2.55438
G1 X95.2 Y105.2 E2.87368
G1 X95.2 Y114.8 E3.19297
G1 X104.8 Y114.8 E3.51227
G0 F6000 X104.082 Y114.082
;MESH:NONMESH
G0 F300 X104.082 Y114.082 Z0.4
G0 F6000 X104 Y114
;TIME_ELAPSED:13.178196
;LAYER:1
M106 S85
;TYPE:WALL-INNER
;MESH:Square.STL
G1 F634.7 X104 Y106 E3.77835
G1 X96 Y106 E4.04443
G1 X96 Y114 E4.31051
G1 X104 Y114 E4.57659
G0 F7500 X104.4 Y114.4
G1 F634.7 X104.4 Y105.6 E4.86928
G1 X95.6 Y105.6 E5.16197
G1 X95.6 Y114.4 E5.45466
G1 X104.4 Y114.4 E5.74735
G0 F7500 X104.8 Y114.8
;TYPE:WALL-OUTER
G1 F634.7 X104.8 Y105.2 E6.06665
G1 X95.2 Y105.2 E6.38595
G1 X95.2 Y114.8 E6.70524
G1 X104.8 Y114.8 E7.02454
G0 F7500 X104.082 Y114.082
;MESH:NONMESH
G0 F300 X104.082 Y114.082 Z0.6
G0 F7500 X104 Y114
;TIME_ELAPSED:23.463001
;LAYER:2
M106 S170
;TYPE:WALL-INNER
;MESH:Square.STL
G1 F634.6 X104 Y106 E7.29062
G1 X96 Y106 E7.5567
G1 X96 Y114 E7.82278
G1 X104 Y114 E8.08886
G0 F9000 X104.4 Y114.4
G1 F634.6 X104.4 Y105.6 E8.38155
G1 X95.6 Y105.6 E8.67424
G1 X95.6 Y114.4 E8.96693
G1 X104.4 Y114.4 E9.25962
G0 F9000 X104.8 Y114.8
;TYPE:WALL-OUTER
G1 F634.6 X104.8 Y105.2 E9.57892
G1 X95.2 Y105.2 E9.89822
G1 X95.2 Y114.8 E10.21751
G1 X104.8 Y114.8 E10.53681
G0 F9000 X104.082 Y114.082
;MESH:NONMESH
G0 F300 X104.082 Y114.082 Z0.8
G0 F9000 X104 Y114
;TIME_ELAPSED:33.752473
;LAYER:3
M106 S255
;TYPE:WALL-INNER
;MESH:Square.STL
G1 F634.6 X104 Y106 E10.80289
G1 X96 Y106 E11.06897
G1 X96 Y114 E11.33505
G1 X104 Y114 E11.60114
G0 F9000 X104.4 Y114.4
G1 F634.6 X104.4 Y105.6 E11.89382
G1 X95.6 Y105.6 E12.18651
G1 X95.6 Y114.4 E12.4792
G1 X104.4 Y114.4 E12.77189
G0 F9000 X104.8 Y114.8
;TYPE:WALL-OUTER
G1 F634.6 X104.8 Y105.2 E13.09119
G1 X95.2 Y105.2 E13.41049
G1 X95.2 Y114.8 E13.72978
G1 X104.8 Y114.8 E14.04908
G0 F9000 X104.082 Y114.082
;MESH:NONMESH
G0 F300 X104.082 Y114.082 Z1
G0 F9000 X104 Y114
;TIME_ELAPSED:44.041946
;LAYER:4
;TYPE:WALL-INNER
;MESH:Square.STL
G1 F634.6 X104 Y106 E14.31516
G1 X96 Y106 E14.58124
G1 X96 Y114 E14.84732
G1 X104 Y114 E15.11341
G0 F9000 X104.4 Y114.4
G1 F634.6 X104.4 Y105.6 E15.40609
G1 X95.6 Y105.6 E15.69878
G1 X95.6 Y114.4 E15.99147
G1 X104.4 Y114.4 E16.28416
G0 F9000 X104.8 Y114.8
;TYPE:WALL-OUTER
G1 F634.6 X104.8 Y105.2 E16.60346
G1 X95.2 Y105.2 E16.92276
G1 X95.2 Y114.8 E17.24205
G1 X104.8 Y114.8 E17.56135
G0 F9000 X104.082 Y114.082
;MESH:NONMESH
G0 F300 X104.082 Y114.082 Z1.2
G0 F9000 X104 Y114
;TIME_ELAPSED:54.331418
;LAYER:5
;TYPE:WALL-INNER
;MESH:Square.STL
G1 F634.6 X104 Y106 E17.82743
G1 X96 Y106 E18.09351
G1 X96 Y114 E18.35959
G1 X104 Y114 E18.62568
G0 F9000 X104.4 Y114.4
G1 F634.6 X104.4 Y105.6 E18.91836
G1 X95.6 Y105.6 E19.21105
G1 X95.6 Y114.4 E19.50374
G1 X104.4 Y114.4 E19.79643
G0 F9000 X104.8 Y114.8
;TYPE:WALL-OUTER
G1 F634.6 X104.8 Y105.2 E20.11573
G1 X95.2 Y105.2 E20.43503
G1 X95.2 Y114.8 E20.75432
G1 X104.8 Y114.8 E21.07362
G0 F9000 X104.082 Y114.082
;MESH:NONMESH
G0 F300 X104.082 Y114.082 Z1.4
G0 F9000 X104 Y114
;TIME_ELAPSED:64.620891
;LAYER:6
;TYPE:WALL-INNER
;MESH:Square.STL
G1 F634.6 X104 Y106 E21.3397
G1 X96 Y106 E21.60578
G1 X96 Y114 E21.87186
G1 X104 Y114 E22.13795
G0 F9000 X104.4 Y114.4
G1 F634.6 X104.4 Y105.6 E22.43064
G1 X95.6 Y105.6 E22.72332
G1 X95.6 Y114.4 E23.01601
G1 X104.4 Y114.4 E23.3087
G0 F9000 X104.8 Y114.8
;TYPE:WALL-OUTER
G1 F634.6 X104.8 Y105.2 E23.628
G1 X95.2 Y105.2 E23.9473
G1 X95.2 Y114.8 E24.26659
G1 X104.8 Y114.8 E24.58589
G0 F9000 X104.082 Y114.082
;MESH:NONMESH
G0 F300 X104.082 Y114.082 Z1.6
G0 F9000 X104 Y114
;TIME_ELAPSED:74.910364
;LAYER:7
;TYPE:WALL-INNER
;MESH:Square.STL
G1 F634.6 X104 Y106 E24.85197
G1 X96 Y106 E25.11805
G1 X96 Y114 E25.38414
G1 X104 Y114 E25.65022
G0 F9000 X104.4 Y114.4
G1 F634.6 X104.4 Y105.6 E25.94291
G1 X95.6 Y105.6 E26.23559
G1 X95.6 Y114.4 E26.52828
G1 X104.4 Y114.4 E26.82097
G0 F9000 X104.8 Y114.8
;TYPE:WALL-OUTER
G1 F634.6 X104.8 Y105.2 E27.14027
G1 X95.2 Y105.2 E27.45957
G1 X95.2 Y114.8 E27.77886
G1 X104.8 Y114.8 E28.09816
G0 F9000 X104.082 Y114.082
;MESH:NONMESH
G0 F300 X104.082 Y114.082 Z1.8
G0 F9000 X104 Y114
;TIME_ELAPSED:85.199836
;LAYER:8
;TYPE:WALL-INNER
;MESH:Square.STL
G1 F634.6 X104 Y106 E28.36424
G1 X96 Y106 E28.63032
G1 X96 Y114 E28.89641
G1 X104 Y114 E29.16249
G0 F9000 X104.4 Y114.4
G1 F634.6 X104.4 Y105.6 E29.45518
G1 X95.6 Y105.6 E29.74786
G1 X95.6 Y114.4 E30.04055
G1 X104.4 Y114.4 E30.33324
G0 F9000 X104.8 Y114.8
;TYPE:WALL-OUTER
G1 F634.6 X104.8 Y105.2 E30.65254
G1 X95.2 Y105.2 E30.97184
G1 X95.2 Y114.8 E31.29114
G1 X104.8 Y114.8 E31.61043
G0 F9000 X104.082 Y114.082
;MESH:NONMESH
G0 F300 X104.082 Y114.082 Z2
G0 F9000 X104 Y114
;TIME_ELAPSED:95.489309
;LAYER:9
;TYPE:WALL-INNER
;MESH:Square.STL
G1 F634.6 X104 Y106 E31.87651
G1 X96 Y106 E32.14259
G1 X96 Y114 E32.40868
G1 X104 Y114 E32.67476
G0 F9000 X104.4 Y114.4
G1 F634.6 X104.4 Y105.6 E32.96745
G1 X95.6 Y105.6 E33.26014
G1 X95.6 Y114.4 E33.55282
G1 X104.4 Y114.4 E33.84551
G0 F9000 X104.8 Y114.8
;TYPE:WALL-OUTER
G1 F634.6 X104.8 Y105.2 E34.16481
G1 X95.2 Y105.2 E34.48411
G1 X95.2 Y114.8 E34.80341
G1 X104.8 Y114.8 E35.1227
G0 F9000 X104.082 Y114.082
;MESH:NONMESH
G0 F300 X104.082 Y114.082 Z2.2
G0 F9000 X104 Y114
;TIME_ELAPSED:105.778781
;LAYER:10
;TYPE:WALL-INNER
;MESH:Square.STL
G1 F634.6 X104 Y106 E35.38878
G1 X96 Y106 E35.65486
G1 X96 Y114 E35.92095
G1 X104 Y114 E36.18703
G0 F9000 X104.4 Y114.4
G1 F634.6 X104.4 Y105.6 E36.47972
G1 X95.6 Y105.6 E36.77241
G1 X95.6 Y114.4 E37.06509
G1 X104.4 Y114.4 E37.35778
G0 F9000 X104.8 Y114.8
;TYPE:WALL-OUTER
G1 F634.6 X104.8 Y105.2 E37.67708
G1 X95.2 Y105.2 E37.99638
G1 X95.2 Y114.8 E38.31568
G1 X104.8 Y114.8 E38.63497
G0 F9000 X104.082 Y114.082
;MESH:NONMESH
G0 F300 X104.082 Y114.082 Z2.4
G0 F9000 X104 Y114
;TIME_ELAPSED:116.068254
;LAYER:11
;TYPE:WALL-INNER
;MESH:Square.STL
G1 F634.6 X104 Y106 E38.90105
G1 X96 Y106 E39.16714
G1 X96 Y114 E39.43322
G1 X104 Y114 E39.6993
G0 F9000 X104.4 Y114.4
G1 F634.6 X104.4 Y105.6 E39.99199
G1 X95.6 Y105.6 E40.28468
G1 X95.6 Y114.4 E40.57736
G1 X104.4 Y114.4 E40.87005
G0 F9000 X104.8 Y114.8
;TYPE:WALL-OUTER
G1 F634.6 X104.8 Y105.2 E41.18935
G1 X95.2 Y105.2 E41.50865
G1 X95.2 Y114.8 E41.82795
G1 X104.8 Y114.8 E42.14724
G0 F9000 X104.082 Y114.082
;MESH:NONMESH
G0 F300 X104.082 Y114.082 Z2.6
G0 F9000 X104 Y114
;TIME_ELAPSED:126.357726
;LAYER:12
;TYPE:WALL-INNER
;MESH:Square.STL
G1 F634.6 X104 Y106 E42.41332
G1 X96 Y106 E42.67941
G1 X96 Y114 E42.94549
G1 X104 Y114 E43.21157
G0 F9000 X104.4 Y114.4
G1 F634.6 X104.4 Y105.6 E43.50426
G1 X95.6 Y105.6 E43.79695
G1 X95.6 Y114.4 E44.08964
G1 X104.4 Y114.4 E44.38232
G0 F9000 X104.8 Y114.8
;TYPE:WALL-OUTER
G1 F634.6 X104.8 Y105.2 E44.70162
G1 X95.2 Y105.2 E45.02092
G1 X95.2 Y114.8 E45.34022
G1 X104.8 Y114.8 E45.65951
G0 F9000 X104.082 Y114.082
;MESH:NONMESH
G0 F300 X104.082 Y114.082 Z2.8
G0 F9000 X104 Y114
;TIME_ELAPSED:136.647199
;LAYER:13
;TYPE:WALL-INNER
;MESH:Square.STL
G1 F634.6 X104 Y106 E45.92559
G1 X96 Y106 E46.19168
G1 X96 Y114 E46.45776
G1 X104 Y114 E46.72384
G0 F9000 X104.4 Y114.4
G1 F634.6 X104.4 Y105.6 E47.01653
G1 X95.6 Y105.6 E47.30922
G1 X95.6 Y114.4 E47.60191
G1 X104.4 Y114.4 E47.89459
G0 F9000 X104.8 Y114.8
;TYPE:WALL-OUTER
G1 F634.6 X104.8 Y105.2 E48.21389
G1 X95.2 Y105.2 E48.53319
G1 X95.2 Y114.8 E48.85249
G1 X104.8 Y114.8 E49.17178
G0 F9000 X104.082 Y114.082
;MESH:NONMESH
G0 F300 X104.082 Y114.082 Z3
G0 F9000 X104 Y114
;TIME_ELAPSED:146.936671
;LAYER:14
;TYPE:WALL-INNER
;MESH:Square.STL
G1 F634.6 X104 Y106 E49.43786
G1 X96 Y106 E49.70395
G1 X96 Y114 E49.97003
G1 X104 Y114 E50.23611
G0 F9000 X104.4 Y114.4
G1 F634.6 X104.4 Y105.6 E50.5288
G1 X95.6 Y105.6 E50.82149
G1 X95.6 Y114.4 E51.11418
G1 X104.4 Y114.4 E51.40686
G0 F9000 X104.8 Y114.8
;TYPE:WALL-OUTER
G1 F634.6 X104.8 Y105.2 E51.72616
G1 X95.2 Y105.2 E52.04546
G1 X95.2 Y114.8 E52.36476
G1 X104.8 Y114.8 E52.68405
G0 F9000 X104.082 Y114.082
;MESH:NONMESH
G0 F300 X104.082 Y114.082 Z3.2
G0 F9000 X104 Y114
;TIME_ELAPSED:157.226144
;LAYER:15
;TYPE:WALL-INNER
;MESH:Square.STL
G1 F634.6 X104 Y106 E52.95013
G1 X96 Y106 E53.21622
G1 X96 Y114 E53.4823
G1 X104 Y114 E53.74838
G0 F9000 X104.4 Y114.4
G1 F634.6 X104.4 Y105.6 E54.04107
G1 X95.6 Y105.6 E54.33376
G1 X95.6 Y114.4 E54.62645
G1 X104.4 Y114.4 E54.91913
G0 F9000 X104.8 Y114.8
;TYPE:WALL-OUTER
G1 F634.6 X104.8 Y105.2 E55.23843
G1 X95.2 Y105.2 E55.55773
G1 X95.2 Y114.8 E55.87703
G1 X104.8 Y114.8 E56.19632
G0 F9000 X104.082 Y114.082
;MESH:NONMESH
G0 F300 X104.082 Y114.082 Z3.4
G0 F9000 X104 Y114
;TIME_ELAPSED:167.515617
;LAYER:16
;TYPE:WALL-INNER
;MESH:Square.STL
G1 F634.6 X104 Y106 E56.46241
G1 X96 Y106 E56.72849
G1 X96 Y114 E56.99457
G1 X104 Y114 E57.26065
G0 F9000 X104.4 Y114.4
G1 F634.6 X104.4 Y105.6 E57.55334
G1 X95.6 Y105.6 E57.84603
G1 X95.6 Y114.4 E58.13872
G1 X104.4 Y114.4 E58.43141
G0 F9000 X104.8 Y114.8
;TYPE:WALL-OUTER
G1 F634.6 X104.8 Y105.2 E58.7507
G1 X95.2 Y105.2 E59.07
G1 X95.2 Y114.8 E59.3893
G1 X104.8 Y114.8 E59.70859
G0 F9000 X104.082 Y114.082
;MESH:NONMESH
G0 F300 X104.082 Y114.082 Z3.6
G0 F9000 X104 Y114
;TIME_ELAPSED:177.805089
;LAYER:17
;TYPE:WALL-INNER
;MESH:Square.STL
G1 F634.6 X104 Y106 E59.97468
G1 X96 Y106 E60.24076
G1 X96 Y114 E60.50684
G1 X104 Y114 E60.77292
G0 F9000 X104.4 Y114.4
G1 F634.6 X104.4 Y105.6 E61.06561
G1 X95.6 Y105.6 E61.3583
G1 X95.6 Y114.4 E61.65099
G1 X104.4 Y114.4 E61.94368
G0 F9000 X104.8 Y114.8
;TYPE:WALL-OUTER
G1 F634.6 X104.8 Y105.2 E62.26297
G1 X95.2 Y105.2 E62.58227
G1 X95.2 Y114.8 E62.90157
G1 X104.8 Y114.8 E63.22086
G0 F9000 X104.082 Y114.082
;MESH:NONMESH
G0 F300 X104.082 Y114.082 Z3.8
G0 F9000 X104 Y114
;TIME_ELAPSED:188.094562
;LAYER:18
;TYPE:WALL-INNER
;MESH:Square.STL
G1 F634.6 X104 Y106 E63.48695
G1 X96 Y106 E63.75303
G1 X96 Y114 E64.01911
G1 X104 Y114 E64.28519
G0 F9000 X104.4 Y114.4
G1 F634.6 X104.4 Y105.6 E64.57788
G1 X95.6 Y105.6 E64.87057
G1 X95.6 Y114.4 E65.16326
G1 X104.4 Y114.4 E65.45595
G0 F9000 X104.8 Y114.8
;TYPE:WALL-OUTER
G1 F634.6 X104.8 Y105.2 E65.77524
G1 X95.2 Y105.2 E66.09454
G1 X95.2 Y114.8 E66.41384
G1 X104.8 Y114.8 E66.73313
G0 F9000 X104.082 Y114.082
;MESH:NONMESH
G0 F300 X104.082 Y114.082 Z4
G0 F9000 X104 Y114
;TIME_ELAPSED:198.384034
;LAYER:19
;TYPE:WALL-INNER
;MESH:Square.STL
G1 F634.6 X104 Y106 E66.99922
G1 X96 Y106 E67.2653
G1 X96 Y114 E67.53138
G1 X104 Y114 E67.79746
G0 F9000 X104.4 Y114.4
G1 F634.6 X104.4 Y105.6 E68.09015
G1 X95.6 Y105.6 E68.38284
G1 X95.6 Y114.4 E68.67553
G1 X104.4 Y114.4 E68.96822
G0 F9000 X104.8 Y114.8
;TYPE:WALL-OUTER
G1 F634.6 X104.8 Y105.2 E69.28751
G1 X95.2 Y105.2 E69.60681
G1 X95.2 Y114.8 E69.92611
G1 X104.8 Y114.8 E70.24541
G0 F9000 X104.082 Y114.082
;MESH:NONMESH
G0 F300 X104.082 Y114.082 Z4.2
G0 F9000 X104 Y114
;TIME_ELAPSED:208.673507
;LAYER:20
;TYPE:WALL-INNER
;MESH:Square.STL
G1 F634.6 X104 Y106 E70.51149
G1 X96 Y106 E70.77757
G1 X96 Y114 E71.04365
G1 X104 Y114 E71.30973
G0 F9000 X104.4 Y114.4
G1 F634.6 X104.4 Y105.6 E71.60242
G1 X95.6 Y105.6 E71.89511
G1 X95.6 Y114.4 E72.1878
G1 X104.4 Y114.4 E72.48049
G0 F9000 X104.8 Y114.8
;TYPE:WALL-OUTER
G1 F634.6 X104.8 Y105.2 E72.79978
G1 X95.2 Y105.2 E73.11908
G1 X95.2 Y114.8 E73.43838
G1 X104.8 Y114.8 E73.75768
G0 F9000 X104.082 Y114.082
;MESH:NONMESH
G0 F300 X104.082 Y114.082 Z4.4
G0 F9000 X104 Y114
;TIME_ELAPSED:218.962979
;LAYER:21
;TYPE:WALL-INNER
;MESH:Square.STL
G1 F634.6 X104 Y106 E74.02376
G1 X96 Y106 E74.28984
G1 X96 Y114 E74.55592
G1 X104 Y114 E74.822
G0 F9000 X104.4 Y114.4
G1 F634.6 X104.4 Y105.6 E75.11469
G1 X95.6 Y105.6 E75.40738
G1 X95.6 Y114.4 E75.70007
G1 X104.4 Y114.4 E75.99276
G0 F9000 X104.8 Y114.8
;TYPE:WALL-OUTER
G1 F634.6 X104.8 Y105.2 E76.31205
G1 X95.2 Y105.2 E76.63135
G1 X95.2 Y114.8 E76.95065
G1 X104.8 Y114.8 E77.26995
G0 F9000 X104.082 Y114.082
;MESH:NONMESH
G0 F300 X104.082 Y114.082 Z4.6
G0 F9000 X104 Y114
;TIME_ELAPSED:229.252452
;LAYER:22
;TYPE:WALL-INNER
;MESH:Square.STL
G1 F634.6 X104 Y106 E77.53603
G1 X96 Y106 E77.80211
G1 X96 Y114 E78.06819
G1 X104 Y114 E78.33427
G0 F9000 X104.4 Y114.4
G1 F634.6 X104.4 Y105.6 E78.62696
G1 X95.6 Y105.6 E78.91965
G1 X95.6 Y114.4 E79.21234
G1 X104.4 Y114.4 E79.50503
G0 F9000 X104.8 Y114.8
;TYPE:WALL-OUTER
G1 F634.6 X104.8 Y105.2 E79.82432
G1 X95.2 Y105.2 E80.14362
G1 X95.2 Y114.8 E80.46292
G1 X104.8 Y114.8 E80.78222
G0 F9000 X104.082 Y114.082
;MESH:NONMESH
G0 F300 X104.082 Y114.082 Z4.8
G0 F9000 X104 Y114
;TIME_ELAPSED:239.541925
;LAYER:23
;TYPE:WALL-INNER
;MESH:Square.STL
G1 F634.6 X104 Y106 E81.0483
G1 X96 Y106 E81.31438
G1 X96 Y114 E81.58046
G1 X104 Y114 E81.84654
G0 F9000 X104.4 Y114.4
G1 F634.6 X104.4 Y105.6 E82.13923
G1 X95.6 Y105.6 E82.43192
G1 X95.6 Y114.4 E82.72461
G1 X104.4 Y114.4 E83.0173
G0 F9000 X104.8 Y114.8
;TYPE:WALL-OUTER
G1 F634.6 X104.8 Y105.2 E83.33659
G1 X95.2 Y105.2 E83.65589
G1 X95.2 Y114.8 E83.97519
G1 X104.8 Y114.8 E84.29449
G0 F9000 X104.082 Y114.082
;MESH:NONMESH
G0 F300 X104.082 Y114.082 Z5
G0 F9000 X104 Y114
;TIME_ELAPSED:249.831397
;LAYER:24
;TYPE:WALL-INNER
;MESH:Square.STL
G1 F634.6 X104 Y106 E84.56057
G1 X96 Y106 E84.82665
G1 X96 Y114 E85.09273
G1 X104 Y114 E85.35881
G0 F9000 X104.4 Y114.4
G1 F634.6 X104.4 Y105.6 E85.6515
G1 X95.6 Y105.6 E85.94419
G1 X95.6 Y114.4 E86.23688
G1 X104.4 Y114.4 E86.52957
G0 F9000 X104.8 Y114.8
;TYPE:WALL-OUTER
G1 F634.6 X104.8 Y105.2 E86.84886
G1 X95.2 Y105.2 E87.16816
G1 X95.2 Y114.8 E87.48746
G1 X104.8 Y114.8 E87.80676
G0 F9000 X104.082 Y114.082
;MESH:NONMESH
G0 F300 X104.082 Y114.082 Z5.2
G0 F9000 X104 Y114
;TIME_ELAPSED:260.120870
;LAYER:25
;TYPE:WALL-INNER
;MESH:Square.STL
G1 F634.6 X104 Y106 E88.07284
G1 X96 Y106 E88.33892
G1 X96 Y114 E88.605
G1 X104 Y114 E88.87108
G0 F9000 X104.4 Y114.4
G1 F634.6 X104.4 Y105.6 E89.16377
G1 X95.6 Y105.6 E89.45646
G1 X95.6 Y114.4 E89.74915
G1 X104.4 Y114.4 E90.04184
G0 F9000 X104.8 Y114.8
;TYPE:WALL-OUTER
G1 F634.6 X104.8 Y105.2 E90.36113
G1 X95.2 Y105.2 E90.68043
G1 X95.2 Y114.8 E90.99973
G1 X104.8 Y114.8 E91.31903
G0 F9000 X104.082 Y114.082
;MESH:NONMESH
G0 F300 X104.082 Y114.082 Z5.4
G0 F9000 X104 Y114
;TIME_ELAPSED:270.410342
;LAYER:26
;TYPE:WALL-INNER
;MESH:Square.STL
G1 F634.6 X104 Y106 E91.58511
G1 X96 Y106 E91.85119
G1 X96 Y114 E92.11727
G1 X104 Y114 E92.38335
G0 F9000 X104.4 Y114.4
G1 F634.6 X104.4 Y105.6 E92.67604
G1 X95.6 Y105.6 E92.96873
G1 X95.6 Y114.4 E93.26142
G1 X104.4 Y114.4 E93.55411
G0 F9000 X104.8 Y114.8
;TYPE:WALL-OUTER
G1 F634.6 X104.8 Y105.2 E93.87341
G1 X95.2 Y105.2 E94.1927
G1 X95.2 Y114.8 E94.512
G1 X104.8 Y114.8 E94.8313
G0 F9000 X104.082 Y114.082
;MESH:NONMESH
G0 F300 X104.082 Y114.082 Z5.6
G0 F9000 X104 Y114
;TIME_ELAPSED:280.699815
;LAYER:27
;TYPE:WALL-INNER
;MESH:Square.STL
G1 F634.6 X104 Y106 E95.09738
G1 X96 Y106 E95.36346
G1 X96 Y114 E95.62954
G1 X104 Y114 E95.89562
G0 F9000 X104.4 Y114.4
G1 F634.6 X104.4 Y105.6 E96.18831
G1 X95.6 Y105.6 E96.481
G1 X95.6 Y114.4 E96.77369
G1 X104.4 Y114.4 E97.06638
G0 F9000 X104.8 Y114.8
;TYPE:WALL-OUTER
G1 F634.6 X104.8 Y105.2 E97.38568
G1 X95.2 Y105.2 E97.70497
G1 X95.2 Y114.8 E98.02427
G1 X104.8 Y114.8 E98.34357
