;FLAVOR:Marlin
;TIME:341
;Filament used: 0.210672m
;Layer height: 0.2
;MINX:95.2
;MINY:105.2
;MINZ:0.2
;MAXX:104.8
;MAXY:114.8
;MAXZ:5
;TARGET_MACHINE.NAME:Creality Ender-3
;Generated with Cura_SteamEngine 5.7.0
M140 S50
M105
M190 S50
M104 S200
M105
M109 S200
M82 ;absolute extrusion mode
; Ender 3 Custom Start G-code
G92 E0 ; Reset Extruder
G28 ; Home all axes
G1 X12.1 Y20 Z0.3 F5000.0 ; Move to start position
G1 X12.1 Y200.0 Z0.3 F1500.0 E15 ; Draw the first line
G1 X12.4 Y200.0 Z0.3 F5000.0 ; Move to side a little
G1 X12.4 Y20 Z0.3 F1500.0 E30 ; Draw the second line
G92 E0 ; Reset Extruder
G1 Z2.0 F3000 ; Move Z Axis up little to prevent scratching of Heat Bed
G4 S1 ; Wait 1 second
G1 X0 Y0 Z0 F1000.0 ; Move over to prevent blob squish & Go Home
G4 S30 ; Wait 30 seconds
G0 Z0.2 ; Drop to bed
G92 E0
G92 E0
G1 F2700 E-5
;LAYER_COUNT:25
;LAYER:0
M107
;MESH:Square.STL
G0 F6000 X104.4 Y114.4 Z0.2
;TYPE:WALL-INNER
G1 F2700 E0
G1 F1200 X104.4 Y105.6 E0.29269
G1 X95.6 Y105.6 E0.58538
G1 X95.6 Y114.4 E0.87807
G1 X104.4 Y114.4 E1.17076
G0 F6000 X104.8 Y114.8
;TYPE:WALL-OUTER
G1 F1200 X104.8 Y105.2 E1.49005
G1 X95.2 Y105.2 E1.80935
G1 X95.2 Y114.8 E2.12865
G1 X104.8 Y114.8 E2.44795
G0 F6000 X104.53 Y114.53
G0 X104.3 Y114.04
G0 X104.04 Y114.04
;TYPE:SKIN
G1 F1200 X95.96 Y114.04 E2.71669
G1 X95.96 Y105.96 E2.98543
G1 X104.04 Y105.96 E3.25417
G1 X104.04 Y114.04 E3.52291
G0 F6000 X104.3 Y114.04
G0 X104.228 Y105.772
G0 X103.332 Y105.7
G0 X103.332 Y106.16
G1 F1200 X103.84 Y106.668 E3.54681
G0 F6000 X103.84 Y107.234
G1 F1200 X102.766 Y106.16 E3.59733
G0 F6000 X102.2 Y106.16
G1 F1200 X103.84 Y107.8 E3.67447
G0 F6000 X103.84 Y108.366
G1 F1200 X101.635 Y106.16 E3.77821
G0 F6000 X101.069 Y106.16
G1 F1200 X103.84 Y108.931 E3.90855
G0 F6000 X103.84 Y109.497
G1 F1200 X100.503 Y106.16 E4.06551
G0 F6000 X99.938 Y106.16
G1 F1200 X103.84 Y110.063 E4.24907
G0 F6000 X103.84 Y110.628
G1 F1200 X99.372 Y106.16 E4.45923
G0 F6000 X98.806 Y106.16
G1 F1200 X103.84 Y111.194 E4.69601
G0 F6000 X103.84 Y111.76
G1 F1200 X98.24 Y106.16 E4.95942
G0 F6000 X97.675 Y106.16
G1 F1200 X103.84 Y112.325 E5.2494
G0 F6000 X103.84 Y112.891
G1 F1200 X97.109 Y106.16 E5.56601
G0 F6000 X96.543 Y106.16
G1 F1200 X103.84 Y113.457 E5.90924
G0 F6000 X103.658 Y113.84
G1 F1200 X96.159 Y106.342 E6.26194
G0 F6000 X96.159 Y106.907
G1 F1200 X103.092 Y113.84 E6.58805
G0 F6000 X102.526 Y113.84
G1 F1200 X96.159 Y107.473 E6.88754
G0 F6000 X96.159 Y108.039
G1 F1200 X101.961 Y113.84 E7.16042
G0 F6000 X101.395 Y113.84
G1 F1200 X96.159 Y108.605 E7.40668
G0 F6000 X96.159 Y109.17
G1 F1200 X100.829 Y113.84 E7.62635
G0 F6000 X100.263 Y113.84
G1 F1200 X96.159 Y109.736 E7.81938
G0 F6000 X96.159 Y110.302
G1 F1200 X99.698 Y113.84 E7.98582
G0 F6000 X99.132 Y113.84
G1 F1200 X96.159 Y110.867 E8.12567
G0 F6000 X96.159 Y111.433
G1 F1200 X98.566 Y113.84 E8.23888
G0 F6000 X98.001 Y113.84
G1 F1200 X96.159 Y111.999 E8.3255
G0 F6000 X96.159 Y112.564
G1 F1200 X97.435 Y113.84 E8.38552
G0 F6000 X96.869 Y113.84
G1 F1200 X96.159 Y113.13 E8.41892
G0 F6000 X96.159 Y113.696
G1 F1200 X96.304 Y113.84 E8.42571
;MESH:NONMESH
G0 F300 X96.304 Y113.84 Z0.4
G0 F6000 X96.304 Y114.3
G0 X104.4 Y114.4
;TIME_ELAPSED:19.973722
;LAYER:1
M106 S85
;TYPE:WALL-INNER
;MESH:Square.STL
G1 F1350 X104.4 Y105.6 E8.7184
G1 X95.6 Y105.6 E9.01109
G1 X95.6 Y114.4 E9.30378
G1 X104.4 Y114.4 E9.59647
G0 F7500 X104.8 Y114.8
;TYPE:WALL-OUTER
G1 F1350 X104.8 Y105.2 E9.91577
G1 X95.2 Y105.2 E10.23507
G1 X95.2 Y114.8 E10.55436
G1 X104.8 Y114.8 E10.87366
G0 F7500 X104.53 Y114.53
G0 X104.3 Y114.04
G0 X104.04 Y114.04
;TYPE:SKIN
G1 F1350 X95.96 Y114.04 E11.1424
G1 X95.96 Y105.96 E11.41114
G1 X104.04 Y105.96 E11.67989
G1 X104.04 Y114.04 E11.94863
G0 F7500 X103.383 Y113.84
G1 F1350 X103.84 Y113.383 E11.97012
G0 F7500 X103.84 Y112.817
G1 F1350 X102.818 Y113.84 E12.01822
G0 F7500 X102.252 Y113.84
G1 F1350 X103.84 Y112.252 E12.09291
G0 F7500 X103.84 Y111.686
G1 F1350 X101.686 Y113.84 E12.19423
G0 F7500 X101.121 Y113.84
G1 F1350 X103.84 Y111.12 E12.32215
G0 F7500 X103.84 Y110.555
G1 F1350 X100.555 Y113.84 E12.47666
G0 F7500 X99.989 Y113.84
G1 F1350 X103.84 Y109.989 E12.6578
G0 F7500 X103.84 Y109.423
G1 F1350 X99.423 Y113.84 E12.86557
G0 F7500 X98.858 Y113.84
G1 F1350 X103.84 Y108.858 E13.0999
G0 F7500 X103.84 Y108.292
G1 F1350 X98.292 Y113.84 E13.36086
G0 F7500 X97.726 Y113.84
G1 F1350 X103.84 Y107.726 E13.64845
G0 F7500 X103.84 Y107.161
G1 F1350 X97.161 Y113.84 E13.96261
G0 F7500 X96.595 Y113.84
G1 F1350 X103.84 Y106.595 E14.30339
G0 F7500 X103.71 Y106.159
G1 F1350 X96.16 Y113.709 E14.65852
G0 F7500 X96.16 Y113.143
G1 F1350 X103.144 Y106.159 E14.98703
G0 F7500 X102.579 Y106.159
G1 F1350 X96.16 Y112.578 E15.28896
G0 F7500 X96.16 Y112.012
G1 F1350 X102.013 Y106.159 E15.56426
G0 F7500 X101.447 Y106.159
G1 F1350 X96.16 Y111.446 E15.81295
G0 F7500 X96.16 Y110.881
G1 F1350 X100.882 Y106.159 E16.03506
G0 F7500 X100.316 Y106.159
G1 F1350 X96.16 Y110.315 E16.23054
G0 F7500 X96.16 Y109.749
G1 F1350 X99.75 Y106.159 E16.3994
G0 F7500 X99.184 Y106.159
G1 F1350 X96.16 Y109.184 E16.54167
G0 F7500 X96.16 Y108.618
G1 F1350 X98.619 Y106.159 E16.65733
G0 F7500 X98.053 Y106.159
G1 F1350 X96.16 Y108.052 E16.74637
G0 F7500 X96.16 Y107.487
G1 F1350 X97.487 Y106.159 E16.80881
G0 F7500 X96.922 Y106.159
G1 F1350 X96.16 Y106.921 E16.84466
G0 F7500 X96.16 Y106.355
G1 F1350 X96.356 Y106.159 E16.85387
;MESH:NONMESH
G0 F300 X96.356 Y106.159 Z0.6
G0 F7500 X96.356 Y105.7
G0 X104.228 Y105.772
G0 X104.4 Y114.4
;TIME_ELAPSED:34.255160
;LAYER:2
M106 S170
;TYPE:WALL-INNER
;MESH:Square.STL
G1 F1500 X104.4 Y105.6 E17.14656
G1 X95.6 Y105.6 E17.43925
G1 X95.6 Y114.4 E17.73194
G1 X104.4 Y114.4 E18.02463
G0 F9000 X104.8 Y114.8
;TYPE:WALL-OUTER
G1 F1500 X104.8 Y105.2 E18.34393
G1 X95.2 Y105.2 E18.66323
G1 X95.2 Y114.8 E18.98252
G1 X104.8 Y114.8 E19.30182
G0 F9000 X104.53 Y114.53
G0 X104.3 Y114.04
G0 X104.04 Y114.04
;TYPE:SKIN
G1 F1500 X95.96 Y114.04 E19.57056
G1 X95.96 Y105.96 E19.8393
G1 X104.04 Y105.96 E20.10805
G1 X104.04 Y114.04 E20.37679
G0 F9000 X104.3 Y114.04
G0 X104.228 Y105.772
G0 X103.332 Y105.7
G0 X103.332 Y106.16
G1 F1500 X103.84 Y106.668 E20.40068
G0 F9000 X103.84 Y107.234
G1 F1500 X102.766 Y106.16 E20.4512
G0 F9000 X102.2 Y106.16
G1 F1500 X103.84 Y107.8 E20.52834
G0 F9000 X103.84 Y108.366
G1 F1500 X101.635 Y106.16 E20.63208
G0 F9000 X101.069 Y106.16
G1 F1500 X103.84 Y108.931 E20.76242
G0 F9000 X103.84 Y109.497
G1 F1500 X100.503 Y106.16 E20.91938
G0 F9000 X99.938 Y106.16
G1 F1500 X103.84 Y110.063 E21.10294
G0 F9000 X103.84 Y110.628
G1 F1500 X99.372 Y106.16 E21.31311
G0 F9000 X98.806 Y106.16
G1 F1500 X103.84 Y111.194 E21.54989
G0 F9000 X103.84 Y111.76
G1 F1500 X98.24 Y106.16 E21.8133
G0 F9000 X97.675 Y106.16
G1 F1500 X103.84 Y112.325 E22.10328
G0 F9000 X103.84 Y112.891
G1 F1500 X97.109 Y106.16 E22.41988
G0 F9000 X96.543 Y106.16
G1 F1500 X103.84 Y113.457 E22.76311
G0 F9000 X103.658 Y113.84
G1 F1500 X96.159 Y106.342 E23.11582
G0 F9000 X96.159 Y106.907
G1 F1500 X103.092 Y113.84 E23.44193
G0 F9000 X102.526 Y113.84
G1 F1500 X96.159 Y107.473 E23.74141
G0 F9000 X96.159 Y108.039
G1 F1500 X101.961 Y113.84 E24.0143
G0 F9000 X101.395 Y113.84
G1 F1500 X96.159 Y108.605 E24.26056
G0 F9000 X96.159 Y109.17
G1 F1500 X100.829 Y113.84 E24.48022
G0 F9000 X100.263 Y113.84
G1 F1500 X96.159 Y109.736 E24.67326
G0 F9000 X96.159 Y110.302
G1 F1500 X99.698 Y113.84 E24.8397
G0 F9000 X99.132 Y113.84
G1 F1500 X96.159 Y110.867 E24.97954
G0 F9000 X96.159 Y111.433
G1 F1500 X98.566 Y113.84 E25.09276
G0 F9000 X98.001 Y113.84
G1 F1500 X96.159 Y111.999 E25.17938
G0 F9000 X96.159 Y112.564
G1 F1500 X97.435 Y113.84 E25.2394
G0 F9000 X96.869 Y113.84
G1 F1500 X96.159 Y113.13 E25.27279
G0 F9000 X96.159 Y113.696
G1 F1500 X96.304 Y113.84 E25.27959
;MESH:NONMESH
G0 F300 X96.304 Y113.84 Z0.8
G0 F9000 X96.304 Y114.3
G0 X104.4 Y114.4
;TIME_ELAPSED:47.659317
;LAYER:3
M106 S255
;TYPE:WALL-INNER
;MESH:Square.STL
G1 F1500 X104.4 Y105.6 E25.57228
G1 X95.6 Y105.6 E25.86497
G1 X95.6 Y114.4 E26.15766
G1 X104.4 Y114.4 E26.45035
G0 F9000 X104.8 Y114.8
;TYPE:WALL-OUTER
G1 F1500 X104.8 Y105.2 E26.76964
G1 X95.2 Y105.2 E27.08894
G1 X95.2 Y114.8 E27.40824
G1 X104.8 Y114.8 E27.72753
G0 F9000 X104.53 Y114.53
G0 X104.3 Y114.04
G0 X104.04 Y114.04
;TYPE:SKIN
G1 F1500 X95.96 Y114.04 E27.99628
G1 X95.96 Y105.96 E28.26502
G1 X104.04 Y105.96 E28.53376
G1 X104.04 Y114.04 E28.8025
G0 F9000 X103.383 Y113.84
G1 F1500 X103.84 Y113.383 E28.824
G0 F9000 X103.84 Y112.817
G1 F1500 X102.818 Y113.84 E28.87209
G0 F9000 X102.252 Y113.84
G1 F1500 X103.84 Y112.252 E28.94679
G0 F9000 X103.84 Y111.686
G1 F1500 X101.686 Y113.84 E29.04811
G0 F9000 X101.121 Y113.84
G1 F1500 X103.84 Y111.12 E29.17602
G0 F9000 X103.84 Y110.555
G1 F1500 X100.555 Y113.84 E29.33054
G0 F9000 X99.989 Y113.84
G1 F1500 X103.84 Y109.989 E29.51168
G0 F9000 X103.84 Y109.423
G1 F1500 X99.423 Y113.84 E29.71944
G0 F9000 X98.858 Y113.84
G1 F1500 X103.84 Y108.858 E29.95378
G0 F9000 X103.84 Y108.292
G1 F1500 X98.292 Y113.84 E30.21474
G0 F9000 X97.726 Y113.84
G1 F1500 X103.84 Y107.726 E30.50232
G0 F9000 X103.84 Y107.161
G1 F1500 X97.161 Y113.84 E30.81648
G0 F9000 X96.595 Y113.84
G1 F1500 X103.84 Y106.595 E31.15727
G0 F9000 X103.71 Y106.159
G1 F1500 X96.16 Y113.709 E31.51239
G0 F9000 X96.16 Y113.143
G1 F1500 X103.144 Y106.159 E31.8409
G0 F9000 X102.579 Y106.159
G1 F1500 X96.16 Y112.578 E32.14283
G0 F9000 X96.16 Y112.012
G1 F1500 X102.013 Y106.159 E32.41814
G0 F9000 X101.447 Y106.159
G1 F1500 X96.16 Y111.446 E32.66682
G0 F9000 X96.16 Y110.881
G1 F1500 X100.882 Y106.159 E32.88893
G0 F9000 X100.316 Y106.159
G1 F1500 X96.16 Y110.315 E33.08442
G0 F9000 X96.16 Y109.749
G1 F1500 X99.75 Y106.159 E33.25328
G0 F9000 X99.184 Y106.159
G1 F1500 X96.16 Y109.184 E33.39554
G0 F9000 X96.16 Y108.618
G1 F1500 X98.619 Y106.159 E33.51121
G0 F9000 X98.053 Y106.159
G1 F1500 X96.16 Y108.052 E33.60025
G0 F9000 X96.16 Y107.487
G1 F1500 X97.487 Y106.159 E33.66269
G0 F9000 X96.922 Y106.159
G1 F1500 X96.16 Y106.921 E33.69853
G0 F9000 X96.16 Y106.355
G1 F1500 X96.356 Y106.159 E33.70775
;MESH:NONMESH
G0 F300 X96.356 Y106.159 Z1
G0 F9000 X96.356 Y105.7
G0 X104.228 Y105.772
G0 X104.4 Y114.4
;TIME_ELAPSED:61.000681
;LAYER:4
;TYPE:WALL-INNER
;MESH:Square.STL
G1 F1500 X104.4 Y105.6 E34.00044
G1 X95.6 Y105.6 E34.29313
G1 X95.6 Y114.4 E34.58582
G1 X104.4 Y114.4 E34.87851
G0 F9000 X104.8 Y114.8
;TYPE:WALL-OUTER
G1 F1500 X104.8 Y105.2 E35.1978
G1 X95.2 Y105.2 E35.5171
G1 X95.2 Y114.8 E35.8364
G1 X104.8 Y114.8 E36.15569
G0 F9000 X104.53 Y114.53
G0 X104.3 Y114.04
G0 X104.04 Y114.04
;TYPE:SKIN
G1 F1500 X95.96 Y114.04 E36.42444
G1 X95.96 Y105.96 E36.69318
G1 X104.04 Y105.96 E36.96192
G1 X104.04 Y114.04 E37.23066
G0 F9000 X104.3 Y114.04
G0 X104.228 Y105.772
G0 X103.332 Y105.7
G0 X103.332 Y106.16
G1 F1500 X103.84 Y106.668 E37.25456
G0 F9000 X103.84 Y107.234
G1 F1500 X102.766 Y106.16 E37.30507
G0 F9000 X102.2 Y106.16
G1 F1500 X103.84 Y107.8 E37.38222
G0 F9000 X103.84 Y108.366
G1 F1500 X101.635 Y106.16 E37.48596
G0 F9000 X101.069 Y106.16
G1 F1500 X103.84 Y108.931 E37.61629
G0 F9000 X103.84 Y109.497
G1 F1500 X100.503 Y106.16 E37.77326
G0 F9000 X99.938 Y106.16
G1 F1500 X103.84 Y110.063 E37.95682
G0 F9000 X103.84 Y110.628
G1 F1500 X99.372 Y106.16 E38.16698
G0 F9000 X98.806 Y106.16
G1 F1500 X103.84 Y111.194 E38.40376
G0 F9000 X103.84 Y111.76
G1 F1500 X98.24 Y106.16 E38.66717
G0 F9000 X97.675 Y106.16
G1 F1500 X103.84 Y112.325 E38.95715
G0 F9000 X103.84 Y112.891
G1 F1500 X97.109 Y106.16 E39.27376
G0 F9000 X96.543 Y106.16
G1 F1500 X103.84 Y113.457 E39.61699
G0 F9000 X103.658 Y113.84
G1 F1500 X96.159 Y106.342 E39.96969
G0 F9000 X96.159 Y106.907
G1 F1500 X103.092 Y113.84 E40.2958
G0 F9000 X102.526 Y113.84
G1 F1500 X96.159 Y107.473 E40.59528
G0 F9000 X96.159 Y108.039
G1 F1500 X101.961 Y113.84 E40.86817
G0 F9000 X101.395 Y113.84
G1 F1500 X96.159 Y108.605 E41.11443
G0 F9000 X96.159 Y109.17
G1 F1500 X100.829 Y113.84 E41.33409
G0 F9000 X100.263 Y113.84
G1 F1500 X96.159 Y109.736 E41.52713
G0 F9000 X96.159 Y110.302
G1 F1500 X99.698 Y113.84 E41.69357
G0 F9000 X99.132 Y113.84
G1 F1500 X96.159 Y110.867 E41.83341
G0 F9000 X96.159 Y111.433
G1 F1500 X98.566 Y113.84 E41.94663
G0 F9000 X98.001 Y113.84
G1 F1500 X96.159 Y111.999 E42.03325
G0 F9000 X96.159 Y112.564
G1 F1500 X97.435 Y113.84 E42.09327
G0 F9000 X96.869 Y113.84
G1 F1500 X96.159 Y113.13 E42.12667
G0 F9000 X96.159 Y113.696
G1 F1500 X96.304 Y113.84 E42.13346
;MESH:NONMESH
G0 F300 X96.304 Y113.84 Z1.2
G0 F9000 X96.304 Y114.3
G0 X104.4 Y114.4
;TIME_ELAPSED:74.404838
;LAYER:5
;TYPE:WALL-INNER
;MESH:Square.STL
G1 F1500 X104.4 Y105.6 E42.42615
G1 X95.6 Y105.6 E42.71884
G1 X95.6 Y114.4 E43.01153
G1 X104.4 Y114.4 E43.30422
G0 F9000 X104.8 Y114.8
;TYPE:WALL-OUTER
G1 F1500 X104.8 Y105.2 E43.62352
G1 X95.2 Y105.2 E43.94281
G1 X95.2 Y114.8 E44.26211
G1 X104.8 Y114.8 E44.58141
G0 F9000 X104.53 Y114.53
G0 X104.3 Y114.04
G0 X104.04 Y114.04
;TYPE:SKIN
G1 F1500 X95.96 Y114.04 E44.85015
G1 X95.96 Y105.96 E45.11889
G1 X104.04 Y105.96 E45.38763
G1 X104.04 Y114.04 E45.65638
G0 F9000 X103.383 Y113.84
G1 F1500 X103.84 Y113.383 E45.67787
G0 F9000 X103.84 Y112.817
G1 F1500 X102.818 Y113.84 E45.72597
G0 F9000 X102.252 Y113.84
G1 F1500 X103.84 Y112.252 E45.80066
G0 F9000 X103.84 Y111.686
G1 F1500 X101.686 Y113.84 E45.90198
G0 F9000 X101.121 Y113.84
G1 F1500 X103.84 Y111.12 E46.0299
G0 F9000 X103.84 Y110.555
G1 F1500 X100.555 Y113.84 E46.18441
G0 F9000 X99.989 Y113.84
G1 F1500 X103.84 Y109.989 E46.36555
G0 F9000 X103.84 Y109.423
G1 F1500 X99.423 Y113.84 E46.57331
G0 F9000 X98.858 Y113.84
G1 F1500 X103.84 Y108.858 E46.80765
G0 F9000 X103.84 Y108.292
G1 F1500 X98.292 Y113.84 E47.06861
G0 F9000 X97.726 Y113.84
G1 F1500 X103.84 Y107.726 E47.3562
G0 F9000 X103.84 Y107.161
G1 F1500 X97.161 Y113.84 E47.67036
G0 F9000 X96.595 Y113.84
G1 F1500 X103.84 Y106.595 E48.01114
G0 F9000 X103.71 Y106.159
G1 F1500 X96.16 Y113.709 E48.36627
G0 F9000 X96.16 Y113.143
G1 F1500 X103.144 Y106.159 E48.69477
G0 F9000 X102.579 Y106.159
G1 F1500 X96.16 Y112.578 E48.9967
G0 F9000 X96.16 Y112.012
G1 F1500 X102.013 Y106.159 E49.27201
G0 F9000 X101.447 Y106.159
G1 F1500 X96.16 Y111.446 E49.5207
G0 F9000 X96.16 Y110.881
G1 F1500 X100.882 Y106.159 E49.7428
G0 F9000 X100.316 Y106.159
G1 F1500 X96.16 Y110.315 E49.93829
G0 F9000 X96.16 Y109.749
G1 F1500 X99.75 Y106.159 E50.10715
G0 F9000 X99.184 Y106.159
G1 F1500 X96.16 Y109.184 E50.24942
G0 F9000 X96.16 Y108.618
G1 F1500 X98.619 Y106.159 E50.36508
G0 F9000 X98.053 Y106.159
G1 F1500 X96.16 Y108.052 E50.45412
G0 F9000 X96.16 Y107.487
G1 F1500 X97.487 Y106.159 E50.51656
G0 F9000 X96.922 Y106.159
G1 F1500 X96.16 Y106.921 E50.5524
G0 F9000 X96.16 Y106.355
G1 F1500 X96.356 Y106.159 E50.56162
;MESH:NONMESH
G0 F300 X96.356 Y106.159 Z1.4
G0 F9000 X96.356 Y105.7
G0 X104.228 Y105.772
G0 X104.4 Y114.4
;TIME_ELAPSED:87.746202
;LAYER:6
;TYPE:WALL-INNER
;MESH:Square.STL
G1 F1500 X104.4 Y105.6 E50.85431
G1 X95.6 Y105.6 E51.147
G1 X95.6 Y114.4 E51.43969
G1 X104.4 Y114.4 E51.73238
G0 F9000 X104.8 Y114.8
;TYPE:WALL-OUTER
G1 F1500 X104.8 Y105.2 E52.05168
G1 X95.2 Y105.2 E52.37097
G1 X95.2 Y114.8 E52.69027
G1 X104.8 Y114.8 E53.00957
G0 F9000 X104.53 Y114.53
G0 X104.3 Y114.04
G0 X104.04 Y114.04
;TYPE:SKIN
G1 F1500 X95.96 Y114.04 E53.27831
G1 X95.96 Y105.96 E53.54705
G1 X104.04 Y105.96 E53.8158
G1 X104.04 Y114.04 E54.08454
G0 F9000 X104.3 Y114.04
G0 X104.228 Y105.772
G0 X103.332 Y105.7
G0 X103.332 Y106.16
G1 F1500 X103.84 Y106.668 E54.10843
G0 F9000 X103.84 Y107.234
G1 F1500 X102.766 Y106.16 E54.15895
G0 F9000 X102.2 Y106.16
G1 F1500 X103.84 Y107.8 E54.23609
G0 F9000 X103.84 Y108.366
G1 F1500 X101.635 Y106.16 E54.33983
G0 F9000 X101.069 Y106.16
G1 F1500 X103.84 Y108.931 E54.47017
G0 F9000 X103.84 Y109.497
G1 F1500 X100.503 Y106.16 E54.62713
G0 F9000 X99.938 Y106.16
G1 F1500 X103.84 Y110.063 E54.81069
G0 F9000 X103.84 Y110.628
G1 F1500 X99.372 Y106.16 E55.02085
G0 F9000 X98.806 Y106.16
G1 F1500 X103.84 Y111.194 E55.25764
G0 F9000 X103.84 Y111.76
G1 F1500 X98.24 Y106.16 E55.52104
G0 F9000 X97.675 Y106.16
G1 F1500 X103.84 Y112.325 E55.81103
G0 F9000 X103.84 Y112.891
G1 F1500 X97.109 Y106.16 E56.12763
G0 F9000 X96.543 Y106.16
